<?xml version='1.0' encoding='UTF-8'?>
<map version="1.10" tiledversion="1.11.2" orientation="orthogonal" renderorder="right-down" width="96" height="96" tilewidth="32" tileheight="32" infinite="0" nextlayerid="8" nextobjectid="2">
 <tileset firstgid="1" source="spritepacks/epicrpg/desert1.6/tiledmap/Tilesets/Desert-Tileset-cliff1-3T.tsx" />
 <tileset firstgid="289" source="spritepacks/epicrpg/desert1.6/tiledmap/Tilesets/Desert-Tileset-cliff1-2T.tsx" />
 <tileset firstgid="577" source="spritepacks/epicrpg/desert1.6/tiledmap/Tilesets/Terrain-Desert.tsx" />
 <tileset firstgid="3108" source="spritepacks/epicrpg/desert1.6/tiledmap/Tilesets/water-to-sand.tsx" />
 <tileset firstgid="3507" source="spritepacks/epicrpg/desert1.6/tiledmap/Tilesets/Props.tsx" />
 <tileset firstgid="5119" source="spritepacks/epicrpg/desert1.6/tiledmap/Tilesets/props-sprites.tsx" />
 <tileset firstgid="5469" source="spritepacks/epicrpg/desert1.6/tiledmap/Tilesets/props-houses-tents-sprites.tsx" />
 <tileset firstgid="5600" source="spritepacks/epicrpg/desert1.6/tiledmap/Tilesets/props2.tsx" />
 <tileset firstgid="6225" source="spritepacks/epicrpg/desert1.6/tiledmap/Tilesets/props2-sprites.tsx" />
 <layer id="1" name="Ground" width="96" height="96">
  <data encoding="csv">
578,581,580,586,664,583,581,583,583,587,587,584,584,586,582,587,578,705,578,580,585,705,587,580,585,583,578,587,664,664,581,705,584,581,748,585,748,579,581,706,707,585,705,705,581,707,584,748,705,585,585,586,582,748,587,586,580,582,587,586,586,587,587,580,664,748,587,581,586,748,707,578,579,583,584,585,748,706,587,748,578,581,580,586,664,583,581,583,583,587,587,584,584,586,582,587,
707,581,706,583,706,705,579,587,580,578,584,705,706,585,587,579,664,582,582,580,586,581,582,707,707,580,583,586,587,587,705,706,707,706,584,580,664,664,705,578,582,586,587,579,578,706,707,705,580,748,579,706,587,581,583,581,707,586,585,578,584,578,705,584,585,583,664,748,578,664,583,664,581,707,748,748,582,583,579,587,707,581,706,583,706,705,579,587,580,578,584,705,706,585,587,579,
581,580,707,707,587,581,581,580,583,707,584,748,706,748,585,582,587,707,578,748,748,578,586,584,583,579,580,585,578,707,582,583,581,580,587,584,585,578,582,583,581,585,583,579,581,583,705,583,705,578,707,748,707,664,664,580,578,579,748,582,581,748,587,579,578,707,579,748,705,581,706,748,587,583,587,587,748,705,583,580,581,580,707,707,587,581,581,580,583,707,584,748,706,748,585,582,
664,705,580,664,748,585,584,578,579,578,583,583,582,707,579,579,706,587,587,583,706,706,664,705,580,579,578,583,705,580,583,585,748,578,580,585,582,585,586,581,705,707,748,584,705,579,582,579,706,581,583,583,706,587,705,664,707,583,584,748,585,707,578,664,705,579,705,586,706,579,586,705,748,587,748,706,582,706,706,664,664,705,580,664,748,585,584,578,579,578,583,583,582,707,579,579,
706,707,583,578,582,587,706,586,586,579,705,586,580,664,664,582,582,587,580,664,578,707,581,705,582,705,587,706,664,581,584,578,585,705,581,579,587,664,585,584,585,586,579,707,707,580,707,584,586,579,748,706,706,707,583,706,581,583,748,578,579,584,587,664,705,584,706,707,586,706,587,582,587,586,582,579,578,707,582,748,706,707,583,578,582,587,706,586,586,579,705,586,580,664,664,582,
586,748,585,664,586,748,582,585,748,578,580,578,706,578,581,580,583,705,664,664,748,748,706,584,664,582,707,748,586,706,705,706,748,664,587,586,582,579,664,585,578,581,664,578,585,664,748,705,584,578,586,706,586,581,707,586,583,583,706,580,581,580,587,584,586,705,580,578,585,580,579,583,587,585,582,586,707,578,586,578,586,748,585,664,586,748,582,585,748,578,580,578,706,578,581,580,
586,581,578,705,578,586,586,579,706,585,584,707,586,587,587,578,582,578,578,582,578,705,748,748,582,582,578,707,578,580,583,579,578,583,578,578,585,580,705,582,578,582,583,586,706,705,583,584,580,583,581,585,584,578,586,583,706,587,748,587,705,585,664,579,707,585,706,707,706,582,583,584,707,583,579,705,578,586,581,579,586,581,578,705,578,586,586,579,706,585,584,707,586,587,587,578,
748,664,705,579,584,580,582,587,579,582,581,705,586,587,580,587,586,748,580,583,664,578,585,587,585,584,705,582,706,578,748,748,707,706,585,580,583,748,584,585,583,586,585,580,748,586,705,584,579,706,705,705,748,705,586,748,583,748,583,584,584,584,579,585,587,579,748,581,584,581,748,585,583,705,707,748,705,587,585,580,748,664,705,579,584,580,582,587,579,582,581,705,586,587,580,587,
584,578,581,707,706,587,706,748,585,584,581,748,581,581,706,705,705,583,748,583,583,585,586,707,707,580,578,705,584,705,582,583,706,706,581,580,705,583,584,706,586,578,582,664,587,748,586,584,748,586,582,581,705,584,587,584,584,707,707,706,583,583,586,586,705,579,748,578,581,587,707,584,579,664,707,748,578,705,587,586,584,578,581,707,706,587,706,748,585,584,581,748,581,581,706,705,
579,584,705,583,578,583,707,584,581,706,581,707,579,705,706,706,706,580,587,583,579,581,748,581,583,706,579,706,587,578,583,582,748,705,664,587,586,583,707,748,579,580,587,707,584,706,584,585,706,705,587,587,584,587,581,584,582,664,585,585,586,748,706,583,582,581,582,705,587,587,705,581,585,587,587,582,580,579,581,587,579,584,705,583,578,583,707,584,581,706,581,707,579,705,706,706,
582,585,578,579,584,707,581,585,584,579,580,587,706,586,706,578,585,707,586,664,580,586,705,707,580,748,584,582,583,579,579,579,587,582,705,582,585,581,585,748,586,587,584,579,748,585,707,579,584,581,584,579,705,584,582,585,587,581,585,582,707,706,705,707,748,705,585,579,707,584,664,583,748,748,707,664,583,707,582,582,582,585,578,579,584,707,581,585,584,579,580,587,706,586,706,578,
587,581,586,580,581,587,585,586,586,706,582,584,664,707,706,583,664,583,579,705,578,580,579,587,582,705,587,581,582,584,581,748,579,584,579,707,579,664,582,581,748,578,664,707,584,583,706,583,587,580,587,706,587,707,578,587,579,582,705,579,664,582,586,586,707,705,583,580,748,585,578,707,579,580,705,580,585,583,707,585,587,581,586,580,581,587,585,586,586,706,582,584,664,707,706,583,
581,585,579,664,707,706,707,707,582,584,578,584,748,707,585,707,581,582,705,587,586,585,585,707,586,705,707,664,578,579,705,707,581,705,581,586,705,578,705,582,578,578,580,587,664,578,581,583,748,579,587,578,705,584,586,586,579,581,584,580,587,587,583,578,582,748,706,580,583,582,586,586,583,583,587,578,587,578,579,707,581,585,579,664,707,706,707,707,582,584,578,584,748,707,585,707,
586,587,587,707,578,584,664,580,705,581,587,579,583,586,579,706,580,586,579,748,748,583,579,705,705,583,706,587,582,705,584,587,707,583,580,585,707,583,748,580,578,584,578,584,707,706,664,664,705,586,580,587,707,748,584,748,581,586,584,584,584,584,706,583,705,581,707,586,583,578,581,583,706,581,579,578,584,705,579,705,586,587,587,707,578,584,664,580,705,581,587,579,583,586,579,706,
582,578,587,580,748,578,705,583,706,581,587,581,585,579,583,664,707,582,580,579,586,583,583,584,580,580,581,664,580,706,578,706,580,705,705,706,586,707,584,707,580,748,587,748,586,584,664,578,585,585,583,586,585,664,583,580,586,583,587,582,580,707,705,580,664,581,705,578,586,706,587,586,587,585,706,705,584,705,748,579,582,578,587,580,748,578,705,583,706,581,587,581,585,579,583,664,
706,587,578,586,748,584,582,584,586,579,581,587,583,582,706,583,579,748,580,581,706,578,748,705,706,583,664,705,580,583,579,586,705,581,587,587,578,587,582,583,581,585,587,578,583,583,707,705,583,586,583,582,587,579,582,748,664,664,584,664,706,583,707,583,583,585,585,584,664,584,664,664,585,706,582,585,583,582,583,578,706,587,578,586,748,584,582,584,586,579,581,587,583,582,706,583,
579,706,706,583,585,579,580,664,583,584,584,706,748,587,584,580,748,579,582,581,582,586,583,707,706,706,586,580,585,583,664,587,578,705,585,583,583,586,707,583,587,585,664,706,587,707,706,587,580,578,586,706,585,581,578,583,586,581,582,584,584,581,705,582,578,705,705,585,585,584,585,582,585,707,585,707,587,584,705,587,579,706,706,583,585,579,580,664,583,584,584,706,748,587,584,580,
748,579,706,578,664,582,585,584,664,580,581,578,587,587,580,705,748,578,583,586,706,585,706,707,585,587,587,705,580,585,578,586,748,748,664,586,581,583,585,578,584,707,580,706,748,587,706,707,583,586,581,584,585,580,748,579,583,587,578,706,748,578,587,578,587,581,664,585,580,664,578,587,579,580,748,705,748,705,705,664,748,579,706,578,664,582,585,584,664,580,581,578,587,587,580,705,
586,579,748,579,579,582,587,582,707,585,583,707,580,582,582,706,664,705,585,578,707,581,707,705,581,707,578,579,705,587,582,580,748,583,586,585,581,707,586,748,583,584,586,582,578,584,580,707,706,587,585,579,706,748,707,580,748,579,582,664,584,664,707,579,580,581,705,579,581,578,664,579,583,579,706,579,583,664,583,580,586,579,748,579,579,582,587,582,707,585,583,707,580,582,582,706,
585,705,579,578,585,583,585,580,582,587,707,583,705,707,585,748,586,664,583,581,582,579,705,578,707,586,664,587,584,585,584,584,584,707,705,587,748,587,706,664,748,748,748,585,706,580,579,583,579,664,664,705,586,579,706,585,581,585,578,587,587,705,584,585,582,581,579,585,748,584,587,584,586,582,586,581,580,587,579,585,585,705,579,578,585,583,585,580,582,587,707,583,705,707,585,748,
582,584,578,580,586,583,585,586,705,585,580,584,706,585,706,664,748,585,707,583,582,705,664,586,705,581,584,584,587,586,587,584,585,586,587,664,664,664,582,583,586,707,578,580,584,585,583,580,582,664,585,578,584,585,586,579,705,585,748,580,578,581,578,579,581,748,583,582,748,664,582,586,581,587,664,664,587,664,582,586,582,584,578,580,586,583,585,586,705,585,580,584,706,585,706,664,
706,586,707,705,707,587,582,580,583,585,707,748,664,705,584,579,586,707,584,584,664,584,578,664,584,584,586,586,581,705,582,748,706,664,579,578,585,664,581,580,579,578,579,705,584,581,586,582,586,578,585,706,578,584,587,706,587,664,584,580,586,581,706,586,582,583,706,587,583,706,748,580,582,748,584,707,582,585,583,587,706,586,707,705,707,587,582,580,583,585,707,748,664,705,584,579,
707,664,705,581,582,581,664,585,748,664,585,580,583,748,580,581,582,706,581,586,748,578,707,586,587,705,585,707,580,585,582,664,587,582,585,584,584,664,586,582,583,583,580,587,586,664,578,580,585,583,578,706,578,580,705,582,579,587,579,582,585,584,579,664,581,705,664,583,582,586,664,664,706,706,579,707,705,586,583,579,707,664,705,581,582,581,664,585,748,664,585,580,583,748,580,581,
580,707,582,705,582,705,587,583,578,587,579,583,582,707,583,583,581,583,579,586,583,581,579,579,587,748,579,706,664,584,664,582,705,748,586,586,664,579,664,585,748,583,582,586,587,582,584,585,584,582,587,578,583,664,664,587,581,582,580,583,583,584,748,580,664,707,581,579,585,586,581,748,585,580,664,584,579,581,579,580,580,707,582,705,582,705,587,583,578,587,579,583,582,707,583,583,
579,705,582,581,579,585,748,664,583,581,584,706,586,579,583,585,707,587,584,585,580,707,706,705,585,748,707,579,586,580,585,582,706,705,585,705,707,584,578,707,581,707,584,579,583,705,581,585,579,584,707,585,705,706,582,579,706,664,585,579,664,582,586,705,664,705,587,585,585,707,707,584,579,705,580,583,587,585,748,581,579,705,582,581,579,585,748,664,583,581,584,706,586,579,583,585,
748,585,706,584,580,664,748,582,583,584,580,583,582,582,585,578,705,579,705,584,706,579,705,581,585,579,580,706,586,664,748,584,705,705,583,706,664,580,579,707,705,580,705,664,705,583,748,587,581,581,585,581,748,584,583,586,578,580,582,584,579,748,706,584,584,586,584,664,705,580,707,664,748,586,582,580,583,584,583,578,748,585,706,584,580,664,748,582,583,584,580,583,582,582,585,578,
748,582,578,584,580,748,706,585,585,583,582,586,705,707,579,706,585,587,582,664,580,587,707,585,583,578,705,664,705,581,586,748,586,578,705,580,579,582,707,584,578,583,579,585,578,584,748,585,578,583,587,706,578,578,585,748,705,580,578,586,664,581,579,578,587,707,585,584,580,664,583,587,581,706,582,579,587,583,581,664,748,582,578,584,580,748,706,585,585,583,582,586,705,707,579,706,
707,748,579,583,583,748,706,584,582,582,584,585,707,584,581,705,664,581,587,583,583,581,586,582,705,705,707,580,707,706,585,586,705,748,664,707,579,579,705,585,707,578,583,579,580,587,578,579,586,586,582,581,707,580,706,664,582,706,705,586,583,748,578,748,578,586,706,705,748,579,581,748,706,580,578,582,586,580,586,586,707,748,579,583,583,748,706,584,582,582,584,585,707,584,581,705,
585,585,587,664,705,585,705,583,581,579,707,585,583,579,705,580,579,579,583,705,578,580,578,584,664,582,579,664,664,579,579,579,585,748,584,578,587,664,585,582,578,584,705,706,586,705,586,578,707,587,585,585,748,584,707,583,587,705,585,705,705,664,587,584,585,584,705,580,585,587,584,748,706,705,586,585,580,585,585,582,585,585,587,664,705,585,705,583,581,579,707,585,583,579,705,580,
578,582,583,706,664,705,587,580,707,587,579,581,587,582,586,580,581,664,584,582,581,585,579,586,587,583,664,581,587,580,582,664,580,705,581,748,579,587,706,578,587,579,579,582,578,705,584,705,587,748,705,584,582,584,578,584,583,578,586,583,581,707,582,578,664,706,579,582,582,748,580,706,664,584,748,586,582,584,705,705,578,582,583,706,664,705,587,580,707,587,579,581,587,582,586,580,
582,580,583,581,582,585,580,586,581,581,748,579,584,707,705,664,705,748,580,584,581,581,587,587,748,578,581,706,707,584,705,748,583,584,581,706,581,580,578,664,582,583,706,585,580,581,707,586,664,586,705,587,748,705,748,706,586,579,707,580,579,664,584,748,707,586,582,585,578,581,578,585,706,705,584,664,586,583,581,706,582,580,583,581,582,585,580,586,581,581,748,579,584,707,705,664,
579,705,583,707,584,583,584,580,580,587,581,578,587,581,579,705,585,580,579,586,705,707,587,579,583,582,585,585,580,664,707,587,580,584,587,748,578,585,584,584,581,584,581,579,583,748,587,578,748,578,707,707,706,583,579,578,748,706,585,707,579,587,580,579,581,707,585,706,581,578,586,580,584,707,579,586,578,582,585,584,579,705,583,707,584,583,584,580,580,587,581,578,587,581,579,705,
579,582,664,580,581,748,584,579,579,582,587,586,664,707,748,578,586,583,664,585,664,585,706,587,706,579,583,705,581,581,706,586,706,578,748,706,583,584,581,748,585,707,587,584,748,584,587,584,705,587,706,580,578,705,707,664,580,585,748,580,587,664,707,583,578,579,748,748,579,585,581,583,706,586,748,705,664,583,583,748,579,582,664,580,581,748,584,579,579,582,587,586,664,707,748,578,
584,664,583,706,581,748,705,706,586,585,579,586,706,581,587,578,664,579,748,706,706,585,580,584,585,581,664,585,585,580,587,578,706,580,578,705,586,586,705,586,664,585,584,578,581,582,581,578,579,580,579,582,748,587,748,705,586,748,707,586,580,587,582,707,578,581,586,578,578,581,581,583,664,748,579,707,707,581,579,664,584,664,583,706,581,748,705,706,586,585,579,586,706,581,587,578,
664,705,580,706,581,586,584,579,587,706,583,579,585,586,584,748,585,585,578,748,578,584,581,748,706,585,581,705,664,586,579,582,579,586,705,578,584,581,580,582,582,578,707,707,583,587,579,584,583,583,583,585,580,583,585,579,585,581,705,579,748,582,664,580,583,584,707,583,748,578,578,583,707,582,578,578,748,583,705,707,664,705,580,706,581,586,584,579,587,706,583,579,585,586,584,748,
579,578,581,581,706,583,583,584,748,580,585,587,582,584,584,585,748,584,748,664,706,664,583,705,583,585,581,580,705,583,587,581,707,579,580,706,579,706,705,582,583,578,585,583,586,584,705,587,707,578,581,586,582,587,582,578,585,579,584,582,582,583,578,583,664,580,586,705,586,706,581,582,580,706,586,578,707,579,705,581,579,578,581,581,706,583,583,584,748,580,585,587,582,584,584,585,
581,707,580,586,584,586,706,748,748,705,586,664,587,585,582,585,579,585,579,705,582,586,748,580,580,582,705,585,584,587,580,706,580,582,578,705,584,581,584,578,706,748,579,580,705,578,581,706,706,578,707,583,707,706,706,579,581,748,580,707,582,586,584,579,581,707,707,586,580,579,706,587,580,705,582,748,706,580,580,586,581,707,580,586,584,586,706,748,748,705,586,664,587,585,582,585,
579,580,706,705,705,582,586,580,664,587,664,585,707,580,705,580,664,706,580,584,664,578,579,579,583,705,578,705,578,587,587,580,706,582,585,664,586,583,587,582,579,664,582,581,583,664,586,581,664,580,707,582,585,705,578,707,585,580,664,584,581,585,705,706,707,581,578,582,587,584,587,585,585,583,705,748,707,584,583,583,579,580,706,705,705,582,586,580,664,587,664,585,707,580,705,580,
581,585,583,578,706,705,707,705,706,748,581,585,748,706,706,579,587,584,580,585,707,585,584,582,584,586,580,584,586,579,581,748,583,587,706,580,705,582,583,707,664,578,578,664,707,706,578,580,582,664,578,586,579,707,578,664,581,707,582,707,579,583,587,664,748,707,748,586,581,581,586,580,584,706,706,748,706,580,585,584,581,585,583,578,706,705,707,705,706,748,581,585,748,706,706,579,
583,579,705,587,580,706,578,705,664,705,582,664,706,585,705,578,580,585,707,584,582,705,706,582,748,705,584,707,748,579,585,587,583,582,748,582,705,587,587,706,578,707,579,664,664,705,587,581,706,705,748,583,748,579,578,587,580,586,579,748,705,705,705,581,705,580,705,578,585,586,579,707,578,584,583,587,582,584,587,707,583,579,705,587,580,706,578,705,664,705,582,664,706,585,705,578,
705,579,583,587,664,705,707,578,587,707,586,705,748,585,748,581,582,664,664,707,707,706,664,707,585,587,706,748,587,707,581,584,584,705,705,587,707,584,585,706,579,582,583,587,586,706,706,584,578,584,587,664,706,586,706,586,587,664,585,585,664,581,586,586,664,705,580,579,707,748,584,705,582,705,583,584,578,578,586,578,705,579,583,587,664,705,707,578,587,707,586,705,748,585,748,581,
586,582,707,582,748,580,706,705,706,586,579,706,585,578,580,580,579,664,705,707,587,664,585,582,586,586,585,585,664,584,587,579,664,586,579,705,578,584,583,748,707,578,585,664,586,705,587,584,579,578,586,583,584,583,664,586,579,579,748,581,706,584,585,586,582,705,583,584,581,580,586,580,579,707,706,705,581,587,584,585,586,582,707,582,748,580,706,705,706,586,579,706,585,578,580,580,
580,706,584,584,586,579,582,582,586,584,580,580,706,582,587,664,707,585,582,707,585,583,664,664,587,586,585,584,579,585,706,707,579,581,581,748,583,579,585,586,586,587,583,706,707,748,581,582,578,585,578,580,705,579,587,664,579,579,707,586,582,586,583,587,580,579,587,664,580,580,580,583,580,582,584,579,586,587,586,583,580,706,584,584,586,579,582,582,586,584,580,580,706,582,587,664,
705,581,705,587,587,705,580,582,664,583,586,582,706,587,581,707,580,583,581,587,581,580,705,748,706,705,587,705,706,705,581,578,707,580,706,586,706,581,581,705,707,705,664,705,706,586,706,586,706,579,580,705,580,586,748,748,583,705,664,587,584,707,581,705,587,583,583,664,580,585,584,580,583,581,582,580,585,581,582,582,705,581,705,587,587,705,580,582,664,583,586,582,706,587,581,707,
583,585,582,586,707,582,582,580,705,707,578,707,705,578,579,584,580,664,706,580,578,664,584,584,664,748,707,580,583,579,707,664,706,587,706,578,581,705,583,707,584,580,579,583,579,578,707,748,581,586,580,578,664,705,584,585,584,579,579,584,582,706,748,748,581,748,707,584,705,586,584,664,587,585,706,706,587,705,584,585,583,585,582,586,707,582,582,580,705,707,578,707,705,578,579,584,
578,581,580,586,664,583,581,583,583,587,587,584,584,586,582,587,578,705,578,580,585,705,587,580,585,583,578,587,664,664,581,705,584,581,748,585,748,579,581,706,707,585,705,705,581,707,584,748,705,585,585,586,582,748,587,586,580,582,587,586,586,587,587,580,664,748,587,581,586,748,707,578,579,583,584,585,748,706,587,748,578,581,580,586,664,583,581,583,583,587,587,584,584,586,582,587,
707,581,706,583,706,705,579,587,580,578,584,705,706,585,587,579,664,582,582,580,586,581,582,707,707,580,583,586,587,587,705,706,707,706,584,580,664,664,705,578,582,586,587,579,578,706,707,705,580,748,579,706,587,581,583,581,707,586,585,578,584,578,705,584,585,583,664,748,578,664,583,664,581,707,748,748,582,583,579,587,707,581,706,583,706,705,579,587,580,578,584,705,706,585,587,579,
581,580,707,707,587,581,581,580,583,707,584,748,706,748,585,582,587,707,578,748,748,578,586,584,583,579,580,585,578,707,582,583,581,580,587,584,585,578,582,583,581,585,583,579,581,583,705,583,705,578,707,748,707,664,664,580,578,579,748,582,581,748,587,579,578,707,579,748,705,581,706,748,587,583,587,587,748,705,583,580,581,580,707,707,587,581,581,580,583,707,584,748,706,748,585,582,
664,705,580,664,748,585,584,578,579,578,583,583,582,707,579,579,706,587,587,583,706,706,664,705,580,579,578,583,705,580,583,585,748,578,580,585,582,585,586,581,705,707,748,584,705,579,582,579,706,581,583,583,706,587,705,664,707,583,584,748,585,707,578,664,705,579,705,586,706,579,586,705,748,587,748,706,582,706,706,664,664,705,580,664,748,585,584,578,579,578,583,583,582,707,579,579,
706,707,583,578,582,587,706,586,586,579,705,586,580,664,664,582,582,587,580,664,578,707,581,705,582,705,587,706,664,581,584,578,585,705,581,579,587,664,585,584,585,586,579,707,707,580,707,584,586,579,748,706,706,707,583,706,581,583,748,578,579,584,587,664,705,584,706,707,586,706,587,582,587,586,582,579,578,707,582,748,706,707,583,578,582,587,706,586,586,579,705,586,580,664,664,582,
586,748,585,664,586,748,582,585,748,578,580,578,706,578,581,580,583,705,664,664,748,748,706,584,664,582,707,748,586,706,705,706,748,664,587,586,582,579,664,585,578,581,664,578,585,664,748,705,584,578,586,706,586,581,707,586,583,583,706,580,581,580,587,584,586,705,580,578,585,580,579,583,587,585,582,586,707,578,586,578,586,748,585,664,586,748,582,585,748,578,580,578,706,578,581,580,
586,581,578,705,578,586,586,579,706,585,584,707,586,587,587,578,582,578,578,582,578,705,748,748,582,582,578,707,578,580,583,579,578,583,578,578,585,580,705,582,578,582,583,586,706,705,583,584,580,583,581,585,584,578,586,583,706,587,748,587,705,585,664,579,707,585,706,707,706,582,583,584,707,583,579,705,578,586,581,579,586,581,578,705,578,586,586,579,706,585,584,707,586,587,587,578,
748,664,705,579,584,580,582,587,579,582,581,705,586,587,580,587,586,748,580,583,664,578,585,587,585,584,705,582,706,578,748,748,707,706,585,580,583,748,584,585,583,586,585,580,748,586,705,584,579,706,705,705,748,705,586,748,583,748,583,584,584,584,579,585,587,579,748,581,584,581,748,585,583,705,707,748,705,587,585,580,748,664,705,579,584,580,582,587,579,582,581,705,586,587,580,587,
584,578,581,707,706,587,706,748,585,584,581,748,581,581,706,705,705,583,748,583,583,585,586,707,707,580,578,705,584,705,582,583,706,706,581,580,705,583,584,706,586,578,582,664,587,748,586,584,748,586,582,581,705,584,587,584,584,707,707,706,583,583,586,586,705,579,748,578,581,587,707,584,579,664,707,748,578,705,587,586,584,578,581,707,706,587,706,748,585,584,581,748,581,581,706,705,
579,584,705,583,578,583,707,584,581,706,581,707,579,705,706,706,706,580,587,583,579,581,748,581,583,706,579,706,587,578,583,582,748,705,664,587,586,583,707,748,579,580,587,707,584,706,584,585,706,705,587,587,584,587,581,584,582,664,585,585,586,748,706,583,582,581,582,705,587,587,705,581,585,587,587,582,580,579,581,587,579,584,705,583,578,583,707,584,581,706,581,707,579,705,706,706,
582,585,578,579,584,707,581,585,584,579,580,587,706,586,706,578,585,707,586,664,580,586,705,707,580,748,584,582,583,579,579,579,587,582,705,582,585,581,585,748,586,587,584,579,748,585,707,579,584,581,584,579,705,584,582,585,587,581,585,582,707,706,705,707,748,705,585,579,707,584,664,583,748,748,707,664,583,707,582,582,582,585,578,579,584,707,581,585,584,579,580,587,706,586,706,578,
587,581,586,580,581,587,585,586,586,706,582,584,664,707,706,583,664,583,579,705,578,580,579,587,582,705,587,581,582,584,581,748,579,584,579,707,579,664,582,581,748,578,664,707,584,583,706,583,587,580,587,706,587,707,578,587,579,582,705,579,664,582,586,586,707,705,583,580,748,585,578,707,579,580,705,580,585,583,707,585,587,581,586,580,581,587,585,586,586,706,582,584,664,707,706,583,
581,585,579,664,707,706,707,707,582,584,578,584,748,707,585,707,581,582,705,587,586,585,585,707,586,705,707,664,578,579,705,707,581,705,581,586,705,578,705,582,578,578,580,587,664,578,581,583,748,579,587,578,705,584,586,586,579,581,584,580,587,587,583,578,582,748,706,580,583,582,586,586,583,583,587,578,587,578,579,707,581,585,579,664,707,706,707,707,582,584,578,584,748,707,585,707,
586,587,587,707,578,584,664,580,705,581,587,579,583,586,579,706,580,586,579,748,748,583,579,705,705,583,706,587,582,705,584,587,707,583,580,585,707,583,748,580,578,584,578,584,707,706,664,664,705,586,580,587,707,748,584,748,581,586,584,584,584,584,706,583,705,581,707,586,583,578,581,583,706,581,579,578,584,705,579,705,586,587,587,707,578,584,664,580,705,581,587,579,583,586,579,706,
582,578,587,580,748,578,705,583,706,581,587,581,585,579,583,664,707,582,580,579,586,583,583,584,580,580,581,664,580,706,578,706,580,705,705,706,586,707,584,707,580,748,587,748,586,584,664,578,585,585,583,586,585,664,583,580,586,583,587,582,580,707,705,580,664,581,705,578,586,706,587,586,587,585,706,705,584,705,748,579,582,578,587,580,748,578,705,583,706,581,587,581,585,579,583,664,
706,587,578,586,748,584,582,584,586,579,581,587,583,582,706,583,579,748,580,581,706,578,748,705,706,583,664,705,580,583,579,586,705,581,587,587,578,587,582,583,581,585,587,578,583,583,707,705,583,586,583,582,587,579,582,748,664,664,584,664,706,583,707,583,583,585,585,584,664,584,664,664,585,706,582,585,583,582,583,578,706,587,578,586,748,584,582,584,586,579,581,587,583,582,706,583,
579,706,706,583,585,579,580,664,583,584,584,706,748,587,584,580,748,579,582,581,582,586,583,707,706,706,586,580,585,583,664,587,578,705,585,583,583,586,707,583,587,585,664,706,587,707,706,587,580,578,586,706,585,581,578,583,586,581,582,584,584,581,705,582,578,705,705,585,585,584,585,582,585,707,585,707,587,584,705,587,579,706,706,583,585,579,580,664,583,584,584,706,748,587,584,580,
748,579,706,578,664,582,585,584,664,580,581,578,587,587,580,705,748,578,583,586,706,585,706,707,585,587,587,705,580,585,578,586,748,748,664,586,581,583,585,578,584,707,580,706,748,587,706,707,583,586,581,584,585,580,748,579,583,587,578,706,748,578,587,578,587,581,664,585,580,664,578,587,579,580,748,705,748,705,705,664,748,579,706,578,664,582,585,584,664,580,581,578,587,587,580,705,
586,579,748,579,579,582,587,582,707,585,583,707,580,582,582,706,664,705,585,578,707,581,707,705,581,707,578,579,705,587,582,580,748,583,586,585,581,707,586,748,583,584,586,582,578,584,580,707,706,587,585,579,706,748,707,580,748,579,582,664,584,664,707,579,580,581,705,579,581,578,664,579,583,579,706,579,583,664,583,580,586,579,748,579,579,582,587,582,707,585,583,707,580,582,582,706,
585,705,579,578,585,583,585,580,582,587,707,583,705,707,585,748,586,664,583,581,582,579,705,578,707,586,664,587,584,585,584,584,584,707,705,587,748,587,706,664,748,748,748,585,706,580,579,583,579,664,664,705,586,579,706,585,581,585,578,587,587,705,584,585,582,581,579,585,748,584,587,584,586,582,586,581,580,587,579,585,585,705,579,578,585,583,585,580,582,587,707,583,705,707,585,748,
582,584,578,580,586,583,585,586,705,585,580,584,706,585,706,664,748,585,707,583,582,705,664,586,705,581,584,584,587,586,587,584,585,586,587,664,664,664,582,583,586,707,578,580,584,585,583,580,582,664,585,578,584,585,586,579,705,585,748,580,578,581,578,579,581,748,583,582,748,664,582,586,581,587,664,664,587,664,582,586,582,584,578,580,586,583,585,586,705,585,580,584,706,585,706,664,
706,586,707,705,707,587,582,580,583,585,707,748,664,705,584,579,586,707,584,584,664,584,578,664,584,584,586,586,581,705,582,748,706,664,579,578,585,664,581,580,579,578,579,705,584,581,586,582,586,578,585,706,578,584,587,706,587,664,584,580,586,581,706,586,582,583,706,587,583,706,748,580,582,748,584,707,582,585,583,587,706,586,707,705,707,587,582,580,583,585,707,748,664,705,584,579,
707,664,705,581,582,581,664,585,748,664,585,580,583,748,580,581,582,706,581,586,748,578,707,586,587,705,585,707,580,585,582,664,587,582,585,584,584,664,586,582,583,583,580,587,586,664,578,580,585,583,578,706,578,580,705,582,579,587,579,582,585,584,579,664,581,705,664,583,582,586,664,664,706,706,579,707,705,586,583,579,707,664,705,581,582,581,664,585,748,664,585,580,583,748,580,581,
580,707,582,705,582,705,587,583,578,587,579,583,582,707,583,583,581,583,579,586,583,581,579,579,587,748,579,706,664,584,664,582,705,748,586,586,664,579,664,585,748,583,582,586,587,582,584,585,584,582,587,578,583,664,664,587,581,582,580,583,583,584,748,580,664,707,581,579,585,586,581,748,585,580,664,584,579,581,579,580,580,707,582,705,582,705,587,583,578,587,579,583,582,707,583,583,
579,705,582,581,579,585,748,664,583,581,584,706,586,579,583,585,707,587,584,585,580,707,706,705,585,748,707,579,586,580,585,582,706,705,585,705,707,584,578,707,581,707,584,579,583,705,581,585,579,584,707,585,705,706,582,579,706,664,585,579,664,582,586,705,664,705,587,585,585,707,707,584,579,705,580,583,587,585,748,581,579,705,582,581,579,585,748,664,583,581,584,706,586,579,583,585,
748,585,706,584,580,664,748,582,583,584,580,583,582,582,585,578,705,579,705,584,706,579,705,581,585,579,580,706,586,664,748,584,705,705,583,706,664,580,579,707,705,580,705,664,705,583,748,587,581,581,585,581,748,584,583,586,578,580,582,584,579,748,706,584,584,586,584,664,705,580,707,664,748,586,582,580,583,584,583,578,748,585,706,584,580,664,748,582,583,584,580,583,582,582,585,578,
748,582,578,584,580,748,706,585,585,583,582,586,705,707,579,706,585,587,582,664,580,587,707,585,583,578,705,664,705,581,586,748,586,578,705,580,579,582,707,584,578,583,579,585,578,584,748,585,578,583,587,706,578,578,585,748,705,580,578,586,664,581,579,578,587,707,585,584,580,664,583,587,581,706,582,579,587,583,581,664,748,582,578,584,580,748,706,585,585,583,582,586,705,707,579,706,
707,748,579,583,583,748,706,584,582,582,584,585,707,584,581,705,664,581,587,583,583,581,586,582,705,705,707,580,707,706,585,586,705,748,664,707,579,579,705,585,707,578,583,579,580,587,578,579,586,586,582,581,707,580,706,664,582,706,705,586,583,748,578,748,578,586,706,705,748,579,581,748,706,580,578,582,586,580,586,586,707,748,579,583,583,748,706,584,582,582,584,585,707,584,581,705,
585,585,587,664,705,585,705,583,581,579,707,585,583,579,705,580,579,579,583,705,578,580,578,584,664,582,579,664,664,579,579,579,585,748,584,578,587,664,585,582,578,584,705,706,586,705,586,578,707,587,585,585,748,584,707,583,587,705,585,705,705,664,587,584,585,584,705,580,585,587,584,748,706,705,586,585,580,585,585,582,585,585,587,664,705,585,705,583,581,579,707,585,583,579,705,580,
578,582,583,706,664,705,587,580,707,587,579,581,587,582,586,580,581,664,584,582,581,585,579,586,587,583,664,581,587,580,582,664,580,705,581,748,579,587,706,578,587,579,579,582,578,705,584,705,587,748,705,584,582,584,578,584,583,578,586,583,581,707,582,578,664,706,579,582,582,748,580,706,664,584,748,586,582,584,705,705,578,582,583,706,664,705,587,580,707,587,579,581,587,582,586,580,
582,580,583,581,582,585,580,586,581,581,748,579,584,707,705,664,705,748,580,584,581,581,587,587,748,578,581,706,707,584,705,748,583,584,581,706,581,580,578,664,582,583,706,585,580,581,707,586,664,586,705,587,748,705,748,706,586,579,707,580,579,664,584,748,707,586,582,585,578,581,578,585,706,705,584,664,586,583,581,706,582,580,583,581,582,585,580,586,581,581,748,579,584,707,705,664,
579,705,583,707,584,583,584,580,580,587,581,578,587,581,579,705,585,580,579,586,705,707,587,579,583,582,585,585,580,664,707,587,580,584,587,748,578,585,584,584,581,584,581,579,583,748,587,578,748,578,707,707,706,583,579,578,748,706,585,707,579,587,580,579,581,707,585,706,581,578,586,580,584,707,579,586,578,582,585,584,579,705,583,707,584,583,584,580,580,587,581,578,587,581,579,705,
579,582,664,580,581,748,584,579,579,582,587,586,664,707,748,578,586,583,664,585,664,585,706,587,706,579,583,705,581,581,706,586,706,578,748,706,583,584,581,748,585,707,587,584,748,584,587,584,705,587,706,580,578,705,707,664,580,585,748,580,587,664,707,583,578,579,748,748,579,585,581,583,706,586,748,705,664,583,583,748,579,582,664,580,581,748,584,579,579,582,587,586,664,707,748,578,
584,664,583,706,581,748,705,706,586,585,579,586,706,581,587,578,664,579,748,706,706,585,580,584,585,581,664,585,585,580,587,578,706,580,578,705,586,586,705,586,664,585,584,578,581,582,581,578,579,580,579,582,748,587,748,705,586,748,707,586,580,587,582,707,578,581,586,578,578,581,581,583,664,748,579,707,707,581,579,664,584,664,583,706,581,748,705,706,586,585,579,586,706,581,587,578,
664,705,580,706,581,586,584,579,587,706,583,579,585,586,584,748,585,585,578,748,578,584,581,748,706,585,581,705,664,586,579,582,579,586,705,578,584,581,580,582,582,578,707,707,583,587,579,584,583,583,583,585,580,583,585,579,585,581,705,579,748,582,664,580,583,584,707,583,748,578,578,583,707,582,578,578,748,583,705,707,664,705,580,706,581,586,584,579,587,706,583,579,585,586,584,748,
579,578,581,581,706,583,583,584,748,580,585,587,582,584,584,585,748,584,748,664,706,664,583,705,583,585,581,580,705,583,587,581,707,579,580,706,579,706,705,582,583,578,585,583,586,584,705,587,707,578,581,586,582,587,582,578,585,579,584,582,582,583,578,583,664,580,586,705,586,706,581,582,580,706,586,578,707,579,705,581,579,578,581,581,706,583,583,584,748,580,585,587,582,584,584,585,
581,707,580,586,584,586,706,748,748,705,586,664,587,585,582,585,579,585,579,705,582,586,748,580,580,582,705,585,584,587,580,706,580,582,578,705,584,581,584,578,706,748,579,580,705,578,581,706,706,578,707,583,707,706,706,579,581,748,580,707,582,586,584,579,581,707,707,586,580,579,706,587,580,705,582,748,706,580,580,586,581,707,580,586,584,586,706,748,748,705,586,664,587,585,582,585,
579,580,706,705,705,582,586,580,664,587,664,585,707,580,705,580,664,706,580,584,664,578,579,579,583,705,578,705,578,587,587,580,706,582,585,664,586,583,587,582,579,664,582,581,583,664,586,581,664,580,707,582,585,705,578,707,585,580,664,584,581,585,705,706,707,581,578,582,587,584,587,585,585,583,705,748,707,584,583,583,579,580,706,705,705,582,586,580,664,587,664,585,707,580,705,580,
581,585,583,578,706,705,707,705,706,748,581,585,748,706,706,579,587,584,580,585,707,585,584,582,584,586,580,584,586,579,581,748,583,587,706,580,705,582,583,707,664,578,578,664,707,706,578,580,582,664,578,586,579,707,578,664,581,707,582,707,579,583,587,664,748,707,748,586,581,581,586,580,584,706,706,748,706,580,585,584,581,585,583,578,706,705,707,705,706,748,581,585,748,706,706,579,
583,579,705,587,580,706,578,705,664,705,582,664,706,585,705,578,580,585,707,584,582,705,706,582,748,705,584,707,748,579,585,587,583,582,748,582,705,587,587,706,578,707,579,664,664,705,587,581,706,705,748,583,748,579,578,587,580,586,579,748,705,705,705,581,705,580,705,578,585,586,579,707,578,584,583,587,582,584,587,707,583,579,705,587,580,706,578,705,664,705,582,664,706,585,705,578,
705,579,583,587,664,705,707,578,587,707,586,705,748,585,748,581,582,664,664,707,707,706,664,707,585,587,706,748,587,707,581,584,584,705,705,587,707,584,585,706,579,582,583,587,586,706,706,584,578,584,587,664,706,586,706,586,587,664,585,585,664,581,586,586,664,705,580,579,707,748,584,705,582,705,583,584,578,578,586,578,705,579,583,587,664,705,707,578,587,707,586,705,748,585,748,581,
586,582,707,582,748,580,706,705,706,586,579,706,585,578,580,580,579,664,705,707,587,664,585,582,586,586,585,585,664,584,587,579,664,586,579,705,578,584,583,748,707,578,585,664,586,705,587,584,579,578,586,583,584,583,664,586,579,579,748,581,706,584,585,586,582,705,583,584,581,580,586,580,579,707,706,705,581,587,584,585,586,582,707,582,748,580,706,705,706,586,579,706,585,578,580,580,
580,706,584,584,586,579,582,582,586,584,580,580,706,582,587,664,707,585,582,707,585,583,664,664,587,586,585,584,579,585,706,707,579,581,581,748,583,579,585,586,586,587,583,706,707,748,581,582,578,585,578,580,705,579,587,664,579,579,707,586,582,586,583,587,580,579,587,664,580,580,580,583,580,582,584,579,586,587,586,583,580,706,584,584,586,579,582,582,586,584,580,580,706,582,587,664,
705,581,705,587,587,705,580,582,664,583,586,582,706,587,581,707,580,583,581,587,581,580,705,748,706,705,587,705,706,705,581,578,707,580,706,586,706,581,581,705,707,705,664,705,706,586,706,586,706,579,580,705,580,586,748,748,583,705,664,587,584,707,581,705,587,583,583,664,580,585,584,580,583,581,582,580,585,581,582,582,705,581,705,587,587,705,580,582,664,583,586,582,706,587,581,707,
583,585,582,586,707,582,582,580,705,707,578,707,705,578,579,584,580,664,706,580,578,664,584,584,664,748,707,580,583,579,707,664,706,587,706,578,581,705,583,707,584,580,579,583,579,578,707,748,581,586,580,578,664,705,584,585,584,579,579,584,582,706,748,748,581,748,707,584,705,586,584,664,587,585,706,706,587,705,584,585,583,585,582,586,707,582,582,580,705,707,578,707,705,578,579,584,
578,581,580,586,664,583,581,583,583,587,587,584,584,586,582,587,578,705,578,580,585,705,587,580,585,583,578,587,664,664,581,705,584,581,748,585,748,579,581,706,707,585,705,705,581,707,584,748,705,585,585,586,582,748,587,586,580,582,587,586,586,587,587,580,664,748,587,581,586,748,707,578,579,583,584,585,748,706,587,748,578,581,580,586,664,583,581,583,583,587,587,584,584,586,582,587,
707,581,706,583,706,705,579,587,580,578,584,705,706,585,587,579,664,582,582,580,586,581,582,707,707,580,583,586,587,587,705,706,707,706,584,580,664,664,705,578,582,586,587,579,578,706,707,705,580,748,579,706,587,581,583,581,707,586,585,578,584,578,705,584,585,583,664,748,578,664,583,664,581,707,748,748,582,583,579,587,707,581,706,583,706,705,579,587,580,578,584,705,706,585,587,579,
581,580,707,707,587,581,581,580,583,707,584,748,706,748,585,582,587,707,578,748,748,578,586,584,583,579,580,585,578,707,582,583,581,580,587,584,585,578,582,583,581,585,583,579,581,583,705,583,705,578,707,748,707,664,664,580,578,579,748,582,581,748,587,579,578,707,579,748,705,581,706,748,587,583,587,587,748,705,583,580,581,580,707,707,587,581,581,580,583,707,584,748,706,748,585,582,
664,705,580,664,748,585,584,578,579,578,583,583,582,707,579,579,706,587,587,583,706,706,664,705,580,579,578,583,705,580,583,585,748,578,580,585,582,585,586,581,705,707,748,584,705,579,582,579,706,581,583,583,706,587,705,664,707,583,584,748,585,707,578,664,705,579,705,586,706,579,586,705,748,587,748,706,582,706,706,664,664,705,580,664,748,585,584,578,579,578,583,583,582,707,579,579,
706,707,583,578,582,587,706,586,586,579,705,586,580,664,664,582,582,587,580,664,578,707,581,705,582,705,587,706,664,581,584,578,585,705,581,579,587,664,585,584,585,586,579,707,707,580,707,584,586,579,748,706,706,707,583,706,581,583,748,578,579,584,587,664,705,584,706,707,586,706,587,582,587,586,582,579,578,707,582,748,706,707,583,578,582,587,706,586,586,579,705,586,580,664,664,582,
586,748,585,664,586,748,582,585,748,578,580,578,706,578,581,580,583,705,664,664,748,748,706,584,664,582,707,748,586,706,705,706,748,664,587,586,582,579,664,585,578,581,664,578,585,664,748,705,584,578,586,706,586,581,707,586,583,583,706,580,581,580,587,584,586,705,580,578,585,580,579,583,587,585,582,586,707,578,586,578,586,748,585,664,586,748,582,585,748,578,580,578,706,578,581,580
</data>
 </layer>
 <layer id="2" name="Scenery" width="96" height="96">
  <data encoding="csv">
0,0,0,0,0,0,0,0,0,0,0,0,0,0,0,0,0,0,0,0,0,0,0,0,0,0,0,0,0,0,0,0,0,0,0,0,0,0,0,0,0,0,0,0,0,0,0,0,0,0,0,0,0,0,0,0,0,0,0,0,0,0,0,0,0,0,0,0,0,0,0,0,0,0,0,0,0,0,0,0,0,0,0,0,0,0,0,0,0,0,0,0,0,0,0,0,
0,0,0,0,0,0,0,0,0,0,0,0,0,0,0,0,0,0,0,0,0,0,0,0,0,0,0,0,0,0,0,0,0,0,0,0,0,0,0,0,0,0,0,0,0,0,0,0,0,0,0,0,0,0,0,0,0,0,0,0,0,0,0,0,0,0,0,0,0,0,0,0,0,0,0,0,0,0,0,0,0,0,0,0,0,0,0,0,0,0,0,0,0,0,0,0,
0,0,0,0,0,0,0,0,0,0,0,0,0,0,0,0,0,0,0,0,0,0,0,0,0,0,0,0,0,0,0,0,0,0,0,0,0,0,0,0,0,0,0,0,0,0,0,0,0,0,0,0,0,0,0,0,0,0,0,0,0,0,0,0,0,0,0,0,0,0,0,0,0,0,0,0,0,0,0,0,0,0,0,0,0,0,0,0,0,0,0,0,0,0,0,0,
0,0,0,0,0,0,0,0,0,0,0,0,0,0,0,0,0,0,0,0,0,0,0,0,0,0,0,0,0,0,0,0,0,0,0,0,0,0,0,0,0,0,0,0,0,0,0,0,0,0,0,0,0,0,0,0,0,0,0,0,0,0,0,0,0,0,0,0,0,0,0,0,0,0,0,0,0,0,0,0,0,0,0,0,0,0,0,0,0,0,0,0,0,0,0,0,
0,0,0,0,0,0,0,0,0,0,0,0,0,0,0,0,0,0,0,0,0,0,0,0,0,0,0,0,0,0,0,0,0,0,0,0,0,0,0,0,0,0,0,0,0,0,0,0,0,0,0,0,0,0,0,0,0,0,0,0,0,0,0,0,0,0,0,0,0,0,0,0,0,0,0,0,0,0,0,0,0,0,0,0,0,0,0,0,0,0,0,0,0,0,0,0,
0,0,0,0,0,0,0,0,0,0,0,0,0,0,0,0,0,0,0,0,0,0,0,0,0,0,0,0,0,0,0,0,0,0,0,0,0,0,0,0,0,0,0,0,0,0,0,0,0,0,0,0,0,0,0,0,0,0,0,0,0,0,0,0,0,0,0,0,0,0,0,0,0,0,0,0,0,0,0,0,0,0,0,0,0,0,0,0,0,0,0,0,0,0,0,0,
0,0,0,0,0,0,0,0,0,0,0,0,0,0,0,0,0,0,0,0,0,0,0,0,0,0,0,0,0,0,0,0,0,0,0,0,0,0,0,0,0,0,0,0,0,0,0,0,0,0,0,0,0,0,0,0,0,0,0,0,0,0,0,0,0,0,0,0,0,0,0,0,0,0,0,0,0,0,0,0,0,0,0,0,0,0,0,0,0,0,0,0,0,0,0,0,
0,0,0,0,0,0,0,0,0,0,0,0,0,0,0,0,0,0,0,0,0,0,0,0,0,0,0,0,0,0,0,0,0,0,0,0,0,0,0,0,0,0,0,0,0,0,0,0,0,0,0,0,0,0,0,0,0,0,0,0,0,0,0,0,0,0,0,0,0,0,0,0,0,0,0,0,0,0,0,0,0,0,0,0,0,0,0,0,0,0,0,0,0,0,0,0,
0,0,0,0,0,0,0,0,0,0,0,0,0,0,0,0,0,0,0,0,0,0,0,0,0,0,0,0,0,0,0,0,0,0,0,0,0,0,0,0,0,0,0,0,0,0,0,0,0,0,0,0,0,0,0,0,0,0,0,0,0,0,0,0,0,0,0,0,0,0,0,0,0,0,0,0,0,0,0,0,0,0,0,0,0,0,0,0,0,0,0,0,0,0,0,0,
0,0,0,0,0,0,0,0,0,0,0,0,0,0,0,0,0,0,0,0,0,0,0,0,0,0,0,0,0,0,0,0,0,0,0,0,0,0,0,0,0,0,0,0,0,0,0,0,0,0,0,0,0,0,0,0,0,0,0,0,0,0,0,0,0,0,0,0,0,0,0,0,0,0,0,0,0,0,0,0,0,0,0,0,0,0,0,0,0,0,0,0,0,0,0,0,
0,0,0,0,0,0,0,0,0,0,0,0,0,0,0,0,0,0,0,0,0,0,0,0,0,0,0,0,0,0,0,0,0,0,0,0,0,0,0,0,0,0,0,0,0,0,0,0,0,0,0,0,0,0,0,0,0,0,0,0,0,0,0,0,0,0,0,0,0,0,0,0,0,0,0,0,0,0,0,0,0,0,0,0,0,0,0,0,0,0,0,0,0,0,0,0,
0,0,0,0,0,0,0,0,0,0,0,0,0,0,0,0,0,0,0,0,0,0,0,0,0,0,0,0,0,0,0,0,0,0,0,0,0,0,0,0,0,0,0,0,0,0,0,0,0,0,0,0,0,0,0,0,0,0,0,0,0,0,0,0,0,0,0,0,0,0,0,0,0,0,0,0,0,0,0,0,0,0,0,0,0,0,0,0,0,0,0,0,0,0,0,0,
0,0,0,0,0,0,0,0,0,0,0,0,0,0,0,0,0,0,0,0,0,0,0,0,0,0,0,0,0,0,0,0,0,0,0,0,0,0,0,0,0,0,0,0,0,0,0,0,0,0,0,0,0,0,0,0,0,0,0,0,0,0,0,0,0,0,0,0,0,0,0,0,0,0,0,0,0,0,0,0,0,0,0,0,0,0,0,0,0,0,0,0,0,0,0,0,
0,0,0,0,0,0,0,0,0,0,0,0,0,0,0,0,0,0,0,0,0,0,0,0,0,0,0,0,0,0,0,0,0,0,0,0,0,0,0,0,0,0,0,0,0,0,0,0,0,0,0,0,0,0,0,0,0,0,0,0,0,0,0,0,0,0,0,0,0,0,0,0,0,0,0,0,0,0,0,0,0,0,0,0,0,0,0,0,0,0,0,0,0,0,0,0,
0,0,0,0,0,0,0,0,0,0,0,0,0,0,0,0,0,0,0,0,0,0,0,0,0,0,0,0,0,0,0,0,0,0,0,0,0,0,0,0,0,0,0,0,0,0,0,0,0,0,0,0,0,0,0,0,0,0,0,0,0,0,0,0,0,0,0,0,0,0,0,0,0,0,0,0,0,0,0,0,0,0,0,0,0,0,0,0,0,0,0,0,0,0,0,0,
0,0,0,0,0,0,0,0,0,0,0,0,0,0,0,0,0,0,0,0,0,0,0,0,0,0,0,0,0,0,0,0,0,0,0,0,0,0,0,0,0,0,0,0,0,0,0,0,0,0,0,0,0,0,0,0,0,0,0,0,0,0,0,0,0,0,0,0,0,0,0,0,0,0,0,0,0,0,0,0,0,0,0,0,0,0,0,0,0,0,0,0,0,0,0,0,
0,0,0,0,0,0,0,0,0,0,0,0,0,0,0,0,0,0,0,0,0,0,0,0,0,0,0,0,0,0,0,0,0,0,0,0,0,0,0,0,0,0,0,0,0,0,0,0,0,0,0,0,0,0,0,0,0,0,0,0,0,0,0,0,0,0,0,0,0,0,0,0,0,0,0,0,0,0,0,0,0,0,0,0,0,0,0,0,0,0,0,0,0,0,0,0,
0,0,0,0,0,0,0,0,0,0,0,0,0,0,0,0,0,0,0,0,0,0,0,0,0,0,0,0,0,0,0,0,0,0,0,0,0,0,0,0,0,0,0,0,0,0,0,0,0,0,0,0,0,0,0,0,0,0,0,0,0,0,0,0,0,0,0,0,0,0,0,0,0,0,0,0,0,0,0,0,0,0,0,0,0,0,0,0,0,0,0,0,0,0,0,0,
0,0,0,0,0,0,0,0,0,0,0,0,0,0,0,0,0,0,0,0,0,0,0,0,0,0,0,0,0,0,0,0,0,0,0,0,0,0,0,0,0,0,0,0,0,0,0,0,0,0,0,0,0,0,0,0,0,0,0,0,0,0,0,0,0,0,0,0,0,0,0,0,0,0,0,0,0,0,0,0,0,0,0,0,0,0,0,0,0,0,0,0,0,0,0,0,
0,0,0,0,0,0,0,0,0,0,0,0,0,0,0,0,0,0,0,0,0,0,0,0,0,0,0,0,0,0,0,0,0,0,0,0,0,0,0,0,0,0,0,0,0,0,0,0,0,0,0,0,0,0,0,0,0,0,0,0,0,0,0,0,0,0,0,0,0,0,0,0,0,0,0,0,0,0,0,0,0,0,0,0,0,0,0,0,0,0,0,0,0,0,0,0,
0,0,0,0,0,0,0,0,0,0,0,0,0,0,0,0,0,0,0,0,0,0,0,0,0,0,0,0,0,0,0,0,0,0,0,0,0,0,0,0,0,0,0,0,0,0,0,0,0,0,0,0,0,0,0,0,0,0,0,0,0,0,0,0,0,0,0,0,0,0,0,0,0,0,0,0,0,0,0,0,0,0,0,0,0,0,0,0,0,0,0,0,0,0,0,0,
0,0,0,0,0,0,0,0,0,0,0,0,0,0,0,0,0,0,0,0,0,0,0,0,0,0,0,0,0,0,0,0,0,0,0,0,0,0,0,0,0,0,0,0,0,0,0,0,0,0,0,0,0,0,0,0,0,0,0,0,0,0,0,0,0,0,0,0,0,0,0,0,0,0,0,0,0,0,0,0,0,0,0,0,0,0,0,0,0,0,0,0,0,0,0,0,
0,0,0,0,0,0,0,0,0,0,0,0,0,0,0,0,0,0,0,0,0,0,0,0,0,0,0,0,0,0,0,0,0,0,0,0,0,0,0,0,0,0,0,0,0,0,0,0,0,0,0,0,0,0,0,0,0,0,0,0,0,0,0,0,0,0,0,0,0,0,0,0,0,0,0,0,0,0,0,0,0,0,0,0,0,0,0,0,0,0,0,0,0,0,0,0,
0,0,0,0,0,0,0,0,0,0,0,0,0,0,0,0,0,0,0,0,0,0,0,0,0,0,0,0,0,0,0,0,0,0,0,0,0,0,0,0,0,0,0,0,0,0,0,0,0,0,0,0,0,0,0,0,0,0,0,0,0,0,0,0,0,0,0,0,0,0,0,0,0,0,0,0,0,0,0,0,0,0,0,0,0,0,0,0,0,0,0,0,0,0,0,0,
0,0,0,0,0,0,0,0,0,0,0,0,0,0,0,0,0,0,0,0,0,0,0,0,0,0,0,0,0,0,0,0,0,0,0,0,0,0,0,0,0,0,0,0,0,0,0,0,0,0,0,0,0,0,0,0,0,0,0,0,0,0,0,0,0,0,0,0,0,0,0,0,0,0,0,0,0,0,0,0,0,0,0,0,0,0,0,0,0,0,0,0,0,0,0,0,
0,0,0,0,0,0,0,0,0,0,0,0,0,0,0,0,0,0,0,0,0,0,0,0,0,0,0,0,0,0,0,0,0,0,0,0,0,0,0,0,0,0,0,0,0,0,0,0,0,0,0,0,0,0,0,0,0,0,0,0,0,0,0,0,0,0,0,0,0,0,0,0,0,0,0,0,0,0,0,0,0,0,0,0,0,0,0,0,0,0,0,0,0,0,0,0,
0,0,0,0,0,0,0,0,0,0,0,0,0,0,0,0,0,0,0,0,0,0,0,0,0,0,0,0,0,0,0,0,0,0,0,0,0,0,0,0,0,0,0,0,0,0,0,0,0,0,0,0,0,0,0,0,0,0,0,0,0,0,0,0,0,0,0,0,0,0,0,0,0,0,0,0,0,0,0,0,0,0,0,0,0,0,0,0,0,0,0,0,0,0,0,0,
0,0,0,0,0,0,0,0,0,0,0,0,0,0,0,0,0,0,0,0,0,0,0,0,0,0,0,0,0,0,0,0,0,0,0,0,0,0,0,0,0,0,0,0,0,0,0,0,0,0,0,0,0,0,0,0,0,0,0,0,0,0,0,0,0,0,0,0,0,0,0,0,0,0,0,0,0,0,0,0,0,0,0,0,0,0,0,0,0,0,0,0,0,0,0,0,
0,0,0,0,0,0,0,0,0,0,0,0,0,0,0,0,0,0,0,0,0,0,0,0,0,0,0,0,0,0,0,0,0,0,0,0,0,0,0,0,0,0,0,0,0,0,0,0,0,0,0,0,0,0,0,0,0,0,0,0,0,0,0,0,0,0,0,0,0,0,0,0,0,0,0,0,0,0,0,0,0,0,0,0,0,0,0,0,0,0,0,0,0,0,0,0,
0,0,0,0,0,0,0,0,0,0,0,0,0,0,0,0,0,0,0,0,0,0,0,0,0,0,0,0,0,0,0,0,0,0,0,0,0,0,0,0,0,0,0,0,0,0,0,0,0,0,0,0,0,0,0,0,0,0,0,0,0,0,0,0,0,0,0,0,0,0,0,0,0,0,0,0,0,0,0,0,0,0,0,0,0,0,0,0,0,0,0,0,0,0,0,0,
0,0,0,0,0,0,0,0,0,0,0,0,0,0,0,0,0,0,0,0,0,0,0,0,0,0,0,0,0,0,0,0,0,0,0,0,0,0,0,0,0,0,0,0,0,0,0,0,0,0,0,0,0,0,0,0,0,0,0,0,0,0,0,0,0,0,0,0,0,0,0,0,0,0,0,0,0,0,0,0,0,0,0,0,0,0,0,0,0,0,0,0,0,0,0,0,
0,0,0,0,0,0,0,0,0,0,0,0,0,0,0,0,0,0,0,0,0,0,0,0,0,0,0,0,0,0,0,0,0,0,0,0,0,0,0,0,0,0,0,0,0,0,0,0,0,0,0,0,0,0,0,0,0,0,0,0,0,0,0,0,0,0,0,0,0,0,0,0,0,0,0,0,0,0,0,0,0,0,0,0,0,0,0,0,0,0,0,0,0,0,0,0,
0,0,0,0,0,0,0,0,0,0,0,0,0,0,0,0,0,0,0,0,0,0,0,0,0,0,0,0,0,0,0,0,0,0,0,0,0,0,0,0,0,0,0,0,0,0,0,0,0,0,0,0,0,0,0,0,0,0,0,0,0,0,0,0,0,0,0,0,0,0,0,0,0,0,0,0,0,0,0,0,0,0,0,0,0,0,0,0,0,0,0,0,0,0,0,0,
0,0,0,0,0,0,0,0,0,0,0,0,0,0,0,0,0,0,0,0,0,0,0,0,0,0,0,0,0,0,0,0,0,0,0,0,0,0,0,0,0,0,0,0,0,0,0,0,0,0,0,0,0,0,0,0,0,0,0,0,0,0,0,0,0,0,0,0,0,0,0,0,0,0,0,0,0,0,0,0,0,0,0,0,0,0,0,0,0,0,0,0,0,0,0,0,
0,0,0,0,0,0,0,0,0,0,0,0,0,0,0,0,0,0,0,0,0,0,0,0,0,0,0,0,0,0,0,0,0,0,0,0,0,0,0,0,0,0,0,0,0,0,0,0,0,0,0,0,0,0,0,0,0,0,0,0,0,0,0,0,0,0,0,0,0,0,0,0,0,0,0,0,0,0,0,0,0,0,0,0,0,0,0,0,0,0,0,0,0,0,0,0,
0,0,0,0,0,0,0,0,0,0,0,0,0,0,0,0,0,0,0,0,0,0,0,0,0,0,0,0,0,0,0,0,0,0,0,0,0,0,0,0,0,0,0,0,0,0,0,0,0,0,0,0,0,0,0,0,0,0,0,0,0,0,0,0,0,0,0,0,0,0,0,0,0,0,0,0,0,0,0,0,0,0,0,0,0,0,0,0,0,0,0,0,0,0,0,0,
0,0,0,0,0,0,0,0,0,0,0,0,0,0,0,0,0,0,0,0,0,0,0,0,0,0,0,0,0,0,0,0,0,0,0,0,0,0,0,0,0,0,0,0,0,0,0,0,0,0,0,0,0,0,0,0,0,0,0,0,0,0,0,0,0,0,0,0,0,0,0,0,0,0,0,0,0,0,0,0,0,0,0,0,0,0,0,0,0,0,0,0,0,0,0,0,
0,0,0,0,0,0,0,0,0,0,0,0,0,0,0,0,0,0,0,0,0,0,0,0,0,0,0,0,0,0,0,0,0,0,0,0,0,0,0,0,0,0,0,0,0,0,0,0,0,0,0,0,0,0,0,0,0,0,0,0,0,0,0,0,0,0,0,0,0,0,0,0,0,0,0,0,0,0,0,0,0,0,0,0,0,0,0,0,0,0,0,0,0,0,0,0,
0,0,0,0,0,0,0,0,0,0,0,0,0,0,0,0,0,0,0,0,0,0,0,0,0,0,0,0,0,0,0,0,0,0,0,0,0,0,0,0,0,0,0,0,0,0,0,0,0,0,0,0,0,0,0,0,0,0,0,0,0,0,0,0,0,0,0,0,0,0,0,0,0,0,0,0,0,0,0,0,0,0,0,0,0,0,0,0,0,0,0,0,0,0,0,0,
0,0,0,0,0,0,0,0,0,0,0,0,0,0,0,0,0,0,0,0,0,0,0,0,0,0,0,0,0,0,0,0,0,0,0,0,0,0,0,0,0,0,0,0,0,0,0,0,0,0,0,0,0,0,0,0,0,0,0,0,0,0,0,0,0,0,0,0,0,0,0,0,0,0,0,0,0,0,0,0,0,0,0,0,0,0,0,0,0,0,0,0,0,0,0,0,
0,0,0,0,0,0,0,0,0,0,0,0,0,0,0,0,0,0,0,0,0,0,0,0,0,0,0,0,0,0,0,0,0,0,0,0,0,0,0,0,0,0,0,0,0,0,0,0,0,0,0,0,0,0,0,0,0,0,0,0,0,0,0,0,0,0,0,0,0,0,0,0,0,0,0,0,0,0,0,0,0,0,0,0,0,0,0,0,0,0,0,0,0,0,0,0,
0,0,0,0,0,0,0,0,0,0,0,0,0,0,0,0,0,0,0,0,0,0,0,0,0,0,0,0,0,0,0,0,0,0,0,0,0,0,0,0,0,0,0,0,0,0,0,0,0,0,0,0,0,0,0,0,0,0,0,0,0,0,0,0,0,0,0,0,0,0,0,0,0,0,0,0,0,0,0,0,0,0,0,0,0,0,0,0,0,0,0,0,0,0,0,0,
0,0,0,0,0,0,0,0,0,0,0,0,0,0,0,0,0,0,0,0,0,0,0,0,0,0,0,0,0,0,0,0,0,0,0,0,0,0,0,0,0,0,0,0,0,0,0,0,0,0,0,0,0,0,0,0,0,0,0,0,0,0,0,0,0,0,0,0,0,0,0,0,0,0,0,0,0,0,0,0,0,0,0,0,0,0,0,0,0,0,0,0,0,0,0,0,
0,0,0,0,0,0,0,0,0,0,0,0,0,0,0,0,0,0,0,0,0,0,0,0,0,0,0,0,0,0,0,0,0,0,0,0,0,0,0,0,0,0,0,0,0,0,0,0,0,0,0,0,0,0,0,0,0,0,0,0,0,0,0,0,0,0,0,0,0,0,0,0,0,0,0,0,0,0,0,0,0,0,0,0,0,0,0,0,0,0,0,0,0,0,0,0,
0,0,0,0,0,0,0,0,0,0,0,0,0,0,0,0,0,0,0,0,0,0,0,0,0,0,0,0,0,0,0,0,0,0,0,0,0,0,0,0,0,0,0,0,0,0,0,0,0,0,0,0,0,0,0,0,0,0,0,0,0,0,0,0,0,0,0,0,0,0,0,0,0,0,0,0,0,0,0,0,0,0,0,0,0,0,0,0,0,0,0,0,0,0,0,0,
0,0,0,0,0,0,0,0,0,0,0,0,0,0,0,0,0,0,0,0,0,0,0,0,0,0,0,0,0,0,0,0,0,0,0,0,0,0,0,0,0,0,0,0,0,0,0,0,0,0,0,0,0,0,0,0,0,0,0,0,0,0,0,0,0,0,0,0,0,0,0,0,0,0,0,0,0,0,0,0,0,0,0,0,0,0,0,0,0,0,0,0,0,0,0,0,
0,0,0,0,0,0,0,0,0,0,0,0,0,0,0,0,0,0,0,0,0,0,0,0,0,0,0,0,0,0,0,0,0,0,0,0,0,0,0,0,0,0,0,0,0,0,0,0,0,0,0,0,0,0,0,0,0,0,0,0,0,0,0,0,0,0,0,0,0,0,0,0,0,0,0,0,0,0,0,0,0,0,0,0,0,0,0,0,0,0,0,0,0,0,0,0,
0,0,0,0,0,0,0,0,0,0,0,0,0,0,0,0,0,0,0,0,0,0,0,0,0,0,0,0,0,0,0,0,0,0,0,0,0,0,0,0,0,0,0,0,0,0,0,0,0,0,0,0,0,0,0,0,0,0,0,0,0,0,0,0,0,0,0,0,0,0,0,0,0,0,0,0,0,0,0,0,0,0,0,0,0,0,0,0,0,0,0,0,0,0,0,0,
0,0,0,0,0,0,0,0,0,0,0,0,0,0,0,0,0,0,0,0,0,0,0,0,0,0,0,0,0,0,0,0,0,0,0,0,0,0,0,0,0,0,0,0,0,0,0,0,0,0,0,0,0,0,0,0,0,0,0,0,0,0,0,0,0,0,0,0,0,0,0,0,0,0,0,0,0,0,0,0,0,0,0,0,0,0,0,0,0,0,0,0,0,0,0,0,
0,0,0,0,0,0,0,0,0,0,0,0,0,0,0,0,0,0,0,0,0,0,0,0,0,0,0,0,0,0,0,0,0,0,0,0,0,0,0,0,0,0,0,0,0,0,0,0,0,0,0,0,0,0,0,0,0,0,0,0,0,0,0,0,0,0,0,0,0,0,0,0,0,0,0,0,0,0,0,0,0,0,0,0,0,0,0,0,0,0,0,0,0,0,0,0,
0,0,0,0,0,0,0,0,0,0,0,0,0,0,0,0,0,0,0,0,0,0,0,0,0,0,0,0,0,0,0,0,0,0,0,0,0,0,0,0,0,0,0,0,0,0,0,0,0,0,0,0,0,0,0,0,0,0,0,0,0,0,0,0,0,0,0,0,0,0,0,0,0,0,0,0,0,0,0,0,0,0,0,0,0,0,0,0,0,0,0,0,0,0,0,0,
0,0,0,0,0,0,0,0,0,0,0,0,0,0,0,0,0,0,0,0,0,0,0,0,0,0,0,0,0,0,0,0,0,0,0,0,0,0,0,0,0,0,0,0,0,0,0,0,0,0,0,0,0,0,0,0,0,0,0,0,0,0,0,0,0,0,0,0,0,0,0,0,0,0,0,0,0,0,0,0,0,0,0,0,0,0,0,0,0,0,0,0,0,0,0,0,
0,0,0,0,0,0,0,0,0,0,0,0,0,0,0,0,0,0,0,0,0,0,0,0,0,0,0,0,0,0,0,0,0,0,0,0,0,0,0,0,0,0,0,0,0,0,0,0,0,0,0,0,0,0,0,0,0,0,0,0,0,0,0,0,0,0,0,0,0,0,0,0,0,0,0,0,0,0,0,0,0,0,0,0,0,0,0,0,0,0,0,0,0,0,0,0,
0,0,0,0,0,0,0,0,0,0,0,0,0,0,0,0,0,0,0,0,0,0,0,0,0,0,0,0,0,0,0,0,0,0,0,0,0,0,0,0,0,0,0,0,0,0,0,0,0,0,0,0,0,0,0,0,0,0,0,0,0,0,0,0,0,0,0,0,0,0,0,0,0,0,0,0,0,0,0,0,0,0,0,0,0,0,0,0,0,0,0,0,0,0,0,0,
0,0,0,0,0,0,0,0,0,0,0,0,0,0,0,0,0,0,0,0,0,0,0,0,0,0,0,0,0,0,0,0,0,0,0,0,0,0,0,0,0,0,0,0,0,0,0,0,0,0,0,0,0,0,0,0,0,0,0,0,0,0,0,0,0,0,0,0,0,0,0,0,0,0,0,0,0,0,0,0,0,0,0,0,0,0,0,0,0,0,0,0,0,0,0,0,
0,0,0,0,0,0,0,0,0,0,0,0,0,0,0,0,0,0,0,0,0,0,0,0,0,0,0,0,0,0,0,0,0,0,0,0,0,0,0,0,0,0,0,0,0,0,0,0,0,0,0,0,0,0,0,0,0,0,0,0,0,0,0,0,0,0,0,0,0,0,0,0,0,0,0,0,0,0,0,0,0,0,0,0,0,0,0,0,0,0,0,0,0,0,0,0,
0,0,0,0,0,0,0,0,0,0,0,0,0,0,0,0,0,0,0,0,0,0,0,0,0,0,0,0,0,0,0,0,0,0,0,0,0,0,0,0,0,0,0,0,0,0,0,0,0,0,0,0,0,0,0,0,0,0,0,0,0,0,0,0,0,0,0,0,0,0,0,0,0,0,0,0,0,0,0,0,0,0,0,0,0,0,0,0,0,0,0,0,0,0,0,0,
0,0,0,0,0,0,0,0,0,0,0,0,0,0,0,0,0,0,0,0,0,0,0,0,0,0,0,0,0,0,0,0,0,0,0,0,0,0,0,0,0,0,0,0,0,0,0,0,0,0,0,0,0,0,0,0,0,0,0,0,0,0,0,0,0,0,0,0,0,0,0,0,0,0,0,0,0,0,0,0,0,0,0,0,0,0,0,0,0,0,0,0,0,0,0,0,
0,0,0,0,0,0,0,0,0,0,0,0,0,0,0,0,0,0,0,0,0,0,0,0,0,0,0,0,0,0,0,0,0,0,0,0,0,0,0,0,0,0,0,0,0,0,0,0,0,0,0,0,0,0,0,0,0,0,0,0,0,0,0,0,0,0,0,0,0,0,0,0,0,0,0,0,0,0,0,0,0,0,0,0,0,0,0,0,0,0,0,0,0,0,0,0,
0,0,0,0,0,0,0,0,0,0,0,0,0,0,0,0,0,0,0,0,0,0,0,0,0,0,0,0,0,0,0,0,0,0,0,0,0,0,0,0,0,0,0,0,0,0,0,0,0,0,0,0,0,0,0,0,0,0,0,0,0,0,0,0,0,0,0,0,0,0,0,0,0,0,0,0,0,0,0,0,0,0,0,0,0,0,0,0,0,0,0,0,0,0,0,0,
0,0,0,0,0,0,0,0,0,0,0,0,0,0,0,0,0,0,0,0,0,0,0,0,0,0,0,0,0,0,0,0,0,0,0,0,0,0,0,0,0,0,0,0,0,0,0,0,0,0,0,0,0,0,0,0,0,0,0,0,0,0,0,0,0,0,0,0,0,0,0,0,0,0,0,0,0,0,0,0,0,0,0,0,0,0,0,0,0,0,0,0,0,0,0,0,
0,0,0,0,0,0,0,0,0,0,0,0,0,0,0,0,0,0,0,0,0,0,0,0,0,0,0,0,0,0,0,0,0,0,0,0,0,0,0,0,0,0,0,0,0,0,0,0,0,0,0,0,0,0,0,0,0,0,0,0,0,0,0,0,0,0,0,0,0,0,0,0,0,0,0,0,0,0,0,0,0,0,0,0,0,0,0,0,0,0,0,0,0,0,0,0,
0,0,0,0,0,0,0,0,0,0,0,0,0,0,0,0,0,0,0,0,0,0,0,0,0,0,0,0,0,0,0,0,0,0,0,0,0,0,0,0,0,0,0,0,0,0,0,0,0,0,0,0,0,0,0,0,0,0,0,0,0,0,0,0,0,0,0,0,0,0,0,0,0,0,0,0,0,0,0,0,0,0,0,0,0,0,0,0,0,0,0,0,0,0,0,0,
0,0,0,0,0,0,0,0,0,0,0,0,0,0,0,0,0,0,0,0,0,0,0,0,0,0,0,0,0,0,0,0,0,0,0,0,0,0,0,0,0,0,0,0,0,0,0,0,0,0,0,0,0,0,0,0,0,0,0,0,0,0,0,0,0,0,0,0,0,0,0,0,0,0,0,0,0,0,0,0,0,0,0,0,0,0,0,0,0,0,0,0,0,0,0,0,
0,0,0,0,0,0,0,0,0,0,0,0,0,0,0,0,0,0,0,0,0,0,0,0,0,0,0,0,0,0,0,0,0,0,0,0,0,0,0,0,0,0,0,0,0,0,0,0,0,0,0,0,0,0,0,0,0,0,0,0,0,0,0,0,0,0,0,0,0,0,0,0,0,0,0,0,0,0,0,0,0,0,0,0,0,0,0,0,0,0,0,0,0,0,0,0,
0,0,0,0,0,0,0,0,0,0,0,0,0,0,0,0,0,0,0,0,0,0,0,0,0,0,0,0,0,0,0,0,0,0,0,0,0,0,0,0,0,0,0,0,0,0,0,0,0,0,0,0,0,0,0,0,0,0,0,0,0,0,0,0,0,0,0,0,0,0,0,0,0,0,0,0,0,0,0,0,0,0,0,0,0,0,0,0,0,0,0,0,0,0,0,0,
0,0,0,0,0,0,0,0,0,0,0,0,0,0,0,0,0,0,0,0,0,0,0,0,0,0,0,0,0,0,0,0,0,0,0,0,0,0,0,0,0,0,0,0,0,0,0,0,0,0,0,0,0,0,0,0,0,0,0,0,0,0,0,0,0,0,0,0,0,0,0,0,0,0,0,0,0,0,0,0,0,0,0,0,0,0,0,0,0,0,0,0,0,0,0,0,
0,0,0,0,0,0,0,0,0,0,0,0,0,0,0,0,0,0,0,0,0,0,0,0,0,0,0,0,0,0,0,0,0,0,0,0,0,0,0,0,0,0,0,0,0,0,0,0,0,0,0,0,0,0,0,0,0,0,0,0,0,0,0,0,0,0,0,0,0,0,0,0,0,0,0,0,0,0,0,0,0,0,0,0,0,0,0,0,0,0,0,0,0,0,0,0,
0,0,0,0,0,0,0,0,0,0,0,0,0,0,0,0,0,0,0,0,0,0,0,0,0,0,0,0,0,0,0,0,0,0,0,0,0,0,0,0,0,0,0,0,0,0,0,0,0,0,0,0,0,0,0,0,0,0,0,0,0,0,0,0,0,0,0,0,0,0,0,0,0,0,0,0,0,0,0,0,0,0,0,0,0,0,0,0,0,0,0,0,0,0,0,0,
0,0,0,0,0,0,0,0,0,0,0,0,0,0,0,0,0,0,0,0,0,0,0,0,0,0,0,0,0,0,0,0,0,0,0,0,0,0,0,0,0,0,0,0,0,0,0,0,0,0,0,0,0,0,0,0,0,0,0,0,0,0,0,0,0,0,0,0,0,0,0,0,0,0,0,0,0,0,0,0,0,0,0,0,0,0,0,0,0,0,0,0,0,0,0,0,
0,0,0,0,0,0,0,0,0,0,0,0,0,0,0,0,0,0,0,0,0,0,0,0,0,0,0,0,0,0,0,0,0,0,0,0,0,0,0,0,0,0,0,0,0,0,0,0,0,0,0,0,0,0,0,0,0,0,0,0,0,0,0,0,0,0,0,0,0,0,0,0,0,0,0,0,0,0,0,0,0,0,0,0,0,0,0,0,0,0,0,0,0,0,0,0,
0,0,0,0,0,0,0,0,0,0,0,0,0,0,0,0,0,0,0,0,0,0,0,0,0,0,0,0,0,0,0,0,0,0,0,0,0,0,0,0,0,0,0,0,0,0,0,0,0,0,0,0,0,0,0,0,0,0,0,0,0,0,0,0,0,0,0,0,0,0,0,0,0,0,0,0,0,0,0,0,0,0,0,0,0,0,0,0,0,0,0,0,0,0,0,0,
0,0,0,0,0,0,0,0,0,0,0,0,0,0,0,0,0,0,0,0,0,0,0,0,0,0,0,0,0,0,0,0,0,0,0,0,0,0,0,0,0,0,0,0,0,0,0,0,0,0,0,0,0,0,0,0,0,0,0,0,0,0,0,0,0,0,0,0,0,0,0,0,0,0,0,0,0,0,0,0,0,0,0,0,0,0,0,0,0,0,0,0,0,0,0,0,
0,0,0,0,0,0,0,0,0,0,0,0,0,0,0,0,0,0,0,0,0,0,0,0,0,0,0,0,0,0,0,0,0,0,0,0,0,0,0,0,0,0,0,0,0,0,0,0,0,0,0,0,0,0,0,0,0,0,0,0,0,0,0,0,0,0,0,0,0,0,0,0,0,0,0,0,0,0,0,0,0,0,0,0,0,0,0,0,0,0,0,0,0,0,0,0,
0,0,0,0,0,0,0,0,0,0,0,0,0,0,0,0,0,0,0,0,0,0,0,0,0,0,0,0,0,0,0,0,0,0,0,0,0,0,0,0,0,0,0,0,0,0,0,0,0,0,0,0,0,0,0,0,0,0,0,0,0,0,0,0,0,0,0,0,0,0,0,0,0,0,0,0,0,0,0,0,0,0,0,0,0,0,0,0,0,0,0,0,0,0,0,0,
0,0,0,0,0,0,0,0,0,0,0,0,0,0,0,0,0,0,0,0,0,0,0,0,0,0,0,0,0,0,0,0,0,0,0,0,0,0,0,0,0,0,0,0,0,0,0,0,0,0,0,0,0,0,0,0,0,0,0,0,0,0,0,0,0,0,0,0,0,0,0,0,0,0,0,0,0,0,0,0,0,0,0,0,0,0,0,0,0,0,0,0,0,0,0,0,
0,0,0,0,0,0,0,0,0,0,0,0,0,0,0,0,0,0,0,0,0,0,0,0,0,0,0,0,0,0,0,0,0,0,0,0,0,0,0,0,0,0,0,0,0,0,0,0,0,0,0,0,0,0,0,0,0,0,0,0,0,0,0,0,0,0,0,0,0,0,0,0,0,0,0,0,0,0,0,0,0,0,0,0,0,0,0,0,0,0,0,0,0,0,0,0,
0,0,0,0,0,0,0,0,0,0,0,0,0,0,0,0,0,0,0,0,0,0,0,0,0,0,0,0,0,0,0,0,0,0,0,0,0,0,0,0,0,0,0,0,0,0,0,0,0,0,0,0,0,0,0,0,0,0,0,0,0,0,0,0,0,0,0,0,0,0,0,0,0,0,0,0,0,0,0,0,0,0,0,0,0,0,0,0,0,0,0,0,0,0,0,0,
0,0,0,0,0,0,0,0,0,0,0,0,0,0,0,0,0,0,0,0,0,0,0,0,0,0,0,0,0,0,0,0,0,0,0,0,0,0,0,0,0,0,0,0,0,0,0,0,0,0,0,0,0,0,0,0,0,0,0,0,0,0,0,0,0,0,0,0,0,0,0,0,0,0,0,0,0,0,0,0,0,0,0,0,0,0,0,0,0,0,0,0,0,0,0,0,
0,0,0,0,0,0,0,0,0,0,0,0,0,0,0,0,0,0,0,0,0,0,0,0,0,0,0,0,0,0,0,0,0,0,0,0,0,0,0,0,0,0,0,0,0,0,0,0,0,0,0,0,0,0,0,0,0,0,0,0,0,0,0,0,0,0,0,0,0,0,0,0,0,0,0,0,0,0,0,0,0,0,0,0,0,0,0,0,0,0,0,0,0,0,0,0,
0,0,0,0,0,0,0,0,0,0,0,0,0,0,0,0,0,0,0,0,0,0,0,0,0,0,0,0,0,0,0,0,0,0,0,0,0,0,0,0,0,0,0,0,0,0,0,0,0,0,0,0,0,0,0,0,0,0,0,0,0,0,0,0,0,0,0,0,0,0,0,0,0,0,0,0,0,0,0,0,0,0,0,0,0,0,0,0,0,0,0,0,0,0,0,0,
0,0,0,0,0,0,0,0,0,0,0,0,0,0,0,0,0,0,0,0,0,0,0,0,0,0,0,0,0,0,0,0,0,0,0,0,0,0,0,0,0,0,0,0,0,0,0,0,0,0,0,0,0,0,0,0,0,0,0,0,0,0,0,0,0,0,0,0,0,0,0,0,0,0,0,0,0,0,0,0,0,0,0,0,0,0,0,0,0,0,0,0,0,0,0,0,
0,0,0,0,0,0,0,0,0,0,0,0,0,0,0,0,0,0,0,0,0,0,0,0,0,0,0,0,0,0,0,0,0,0,0,0,0,0,0,0,0,0,0,0,0,0,0,0,0,0,0,0,0,0,0,0,0,0,0,0,0,0,0,0,0,0,0,0,0,0,0,0,0,0,0,0,0,0,0,0,0,0,0,0,0,0,0,0,0,0,0,0,0,0,0,0,
0,0,0,0,0,0,0,0,0,0,0,0,0,0,0,0,0,0,0,0,0,0,0,0,0,0,0,0,0,0,0,0,0,0,0,0,0,0,0,0,0,0,0,0,0,0,0,0,0,0,0,0,0,0,0,0,0,0,0,0,0,0,0,0,0,0,0,0,0,0,0,0,0,0,0,0,0,0,0,0,0,0,0,0,0,0,0,0,0,0,0,0,0,0,0,0,
0,0,0,0,0,0,0,0,0,0,0,0,0,0,0,0,0,0,0,0,0,0,0,0,0,0,0,0,0,0,0,0,0,0,0,0,0,0,0,0,0,0,0,0,0,0,0,0,0,0,0,0,0,0,0,0,0,0,0,0,0,0,0,0,0,0,0,0,0,0,0,0,0,0,0,0,0,0,0,0,0,0,0,0,0,0,0,0,0,0,0,0,0,0,0,0,
0,0,0,0,0,0,0,0,0,0,0,0,0,0,0,0,0,0,0,0,0,0,0,0,0,0,0,0,0,0,0,0,0,0,0,0,0,0,0,0,0,0,0,0,0,0,0,0,0,0,0,0,0,0,0,0,0,0,0,0,0,0,0,0,0,0,0,0,0,0,0,0,0,0,0,0,0,0,0,0,0,0,0,0,0,0,0,0,0,0,0,0,0,0,0,0,
0,0,0,0,0,0,0,0,0,0,0,0,0,0,0,0,0,0,0,0,0,0,0,0,0,0,0,0,0,0,0,0,0,0,0,0,0,0,0,0,0,0,0,0,0,0,0,0,0,0,0,0,0,0,0,0,0,0,0,0,0,0,0,0,0,0,0,0,0,0,0,0,0,0,0,0,0,0,0,0,0,0,0,0,0,0,0,0,0,0,0,0,0,0,0,0,
0,0,0,0,0,0,0,0,0,0,0,0,0,0,0,0,0,0,0,0,0,0,0,0,0,0,0,0,0,0,0,0,0,0,0,0,0,0,0,0,0,0,0,0,0,0,0,0,0,0,0,0,0,0,0,0,0,0,0,0,0,0,0,0,0,0,0,0,0,0,0,0,0,0,0,0,0,0,0,0,0,0,0,0,0,0,0,0,0,0,0,0,0,0,0,0,
0,0,0,0,0,0,0,0,0,0,0,0,0,0,0,0,0,0,0,0,0,0,0,0,0,0,0,0,0,0,0,0,0,0,0,0,0,0,0,0,0,0,0,0,0,0,0,0,0,0,0,0,0,0,0,0,0,0,0,0,0,0,0,0,0,0,0,0,0,0,0,0,0,0,0,0,0,0,0,0,0,0,0,0,0,0,0,0,0,0,0,0,0,0,0,0,
0,0,0,0,0,0,0,0,0,0,0,0,0,0,0,0,0,0,0,0,0,0,0,0,0,0,0,0,0,0,0,0,0,0,0,0,0,0,0,0,0,0,0,0,0,0,0,0,0,0,0,0,0,0,0,0,0,0,0,0,0,0,0,0,0,0,0,0,0,0,0,0,0,0,0,0,0,0,0,0,0,0,0,0,0,0,0,0,0,0,0,0,0,0,0,0,
0,0,0,0,0,0,0,0,0,0,0,0,0,0,0,0,0,0,0,0,0,0,0,0,0,0,0,0,0,0,0,0,0,0,0,0,0,0,0,0,0,0,0,0,0,0,0,0,0,0,0,0,0,0,0,0,0,0,0,0,0,0,0,0,0,0,0,0,0,0,0,0,0,0,0,0,0,0,0,0,0,0,0,0,0,0,0,0,0,0,0,0,0,0,0,0,
0,0,0,0,0,0,0,0,0,0,0,0,0,0,0,0,0,0,0,0,0,0,0,0,0,0,0,0,0,0,0,0,0,0,0,0,0,0,0,0,0,0,0,0,0,0,0,0,0,0,0,0,0,0,0,0,0,0,0,0,0,0,0,0,0,0,0,0,0,0,0,0,0,0,0,0,0,0,0,0,0,0,0,0,0,0,0,0,0,0,0,0,0,0,0,0,
0,0,0,0,0,0,0,0,0,0,0,0,0,0,0,0,0,0,0,0,0,0,0,0,0,0,0,0,0,0,0,0,0,0,0,0,0,0,0,0,0,0,0,0,0,0,0,0,0,0,0,0,0,0,0,0,0,0,0,0,0,0,0,0,0,0,0,0,0,0,0,0,0,0,0,0,0,0,0,0,0,0,0,0,0,0,0,0,0,0,0,0,0,0,0,0,
0,0,0,0,0,0,0,0,0,0,0,0,0,0,0,0,0,0,0,0,0,0,0,0,0,0,0,0,0,0,0,0,0,0,0,0,0,0,0,0,0,0,0,0,0,0,0,0,0,0,0,0,0,0,0,0,0,0,0,0,0,0,0,0,0,0,0,0,0,0,0,0,0,0,0,0,0,0,0,0,0,0,0,0,0,0,0,0,0,0,0,0,0,0,0,0,
0,0,0,0,0,0,0,0,0,0,0,0,0,0,0,0,0,0,0,0,0,0,0,0,0,0,0,0,0,0,0,0,0,0,0,0,0,0,0,0,0,0,0,0,0,0,0,0,0,0,0,0,0,0,0,0,0,0,0,0,0,0,0,0,0,0,0,0,0,0,0,0,0,0,0,0,0,0,0,0,0,0,0,0,0,0,0,0,0,0,0,0,0,0,0,0,
0,0,0,0,0,0,0,0,0,0,0,0,0,0,0,0,0,0,0,0,0,0,0,0,0,0,0,0,0,0,0,0,0,0,0,0,0,0,0,0,0,0,0,0,0,0,0,0,0,0,0,0,0,0,0,0,0,0,0,0,0,0,0,0,0,0,0,0,0,0,0,0,0,0,0,0,0,0,0,0,0,0,0,0,0,0,0,0,0,0,0,0,0,0,0,0
</data>
 </layer>
 <layer id="3" name="walls" width="96" height="96">
  <data encoding="csv">
0,0,0,0,0,0,0,0,0,0,0,0,0,0,0,0,0,0,0,0,0,0,0,0,0,0,0,0,0,0,0,0,0,0,0,0,0,0,0,0,0,0,0,0,0,0,0,0,0,0,0,0,0,0,0,0,0,0,0,0,0,0,0,0,0,0,0,0,0,0,0,0,0,0,0,0,0,0,0,0,0,0,0,0,0,0,0,0,0,0,0,0,0,0,0,0,
0,0,0,0,0,0,0,0,0,0,0,0,0,0,0,0,0,0,0,0,0,0,0,0,0,0,0,0,0,0,0,0,0,0,0,0,0,0,0,0,0,0,0,0,0,0,0,0,0,0,0,0,0,0,0,0,0,0,0,0,0,0,0,0,0,0,0,0,0,0,0,0,0,0,0,0,0,0,0,0,0,0,0,0,0,0,0,0,0,0,0,0,0,0,0,0,
0,0,0,0,0,0,0,0,0,0,0,0,0,0,0,0,0,0,0,0,0,0,0,0,0,0,0,0,0,0,0,0,0,0,0,0,0,0,0,0,0,0,0,0,0,0,0,0,0,0,0,0,0,0,0,0,0,0,0,0,0,0,0,0,0,0,0,0,0,0,0,0,0,0,0,0,0,0,0,0,0,0,0,0,0,0,0,0,0,0,0,0,0,0,0,0,
0,0,0,0,0,0,0,0,0,0,0,0,0,0,0,0,0,0,0,0,0,0,0,0,0,0,0,0,0,0,0,0,0,0,0,0,0,0,0,0,0,0,0,0,0,0,0,0,0,0,0,0,0,0,0,0,0,0,0,0,0,0,0,0,0,0,0,0,0,0,0,0,0,0,0,0,0,0,0,0,0,0,0,0,0,0,0,0,0,0,0,0,0,0,0,0,
0,0,0,0,0,0,0,0,0,0,0,0,0,0,0,0,0,0,0,0,0,0,0,0,0,0,0,0,0,0,0,0,0,0,0,0,0,0,0,0,0,0,0,0,0,0,0,0,0,0,0,0,0,0,0,0,0,0,0,0,0,0,0,0,0,0,0,0,0,0,0,0,0,0,0,0,0,0,0,0,0,0,0,0,0,0,0,0,0,0,0,0,0,0,0,0,
0,0,0,0,0,0,0,0,0,0,0,0,0,0,0,0,0,0,0,0,0,0,0,0,0,0,0,0,0,0,0,0,0,0,0,0,0,0,0,0,0,0,0,0,0,0,0,0,0,0,0,0,0,0,0,0,0,0,0,0,0,0,0,0,0,0,0,0,0,0,0,0,0,0,0,0,0,0,0,0,0,0,0,0,0,0,0,0,0,0,0,0,0,0,0,0,
0,0,0,0,0,0,0,0,0,0,0,0,0,0,0,0,0,0,0,0,0,0,0,0,0,0,0,0,0,0,0,0,0,0,0,0,0,0,0,0,0,0,0,0,0,0,0,0,0,0,0,0,0,0,0,0,0,0,0,0,0,0,0,0,0,0,0,0,0,0,0,0,0,0,0,0,0,0,0,0,0,0,0,0,0,0,0,0,0,0,0,0,0,0,0,0,
0,0,0,0,0,0,0,0,0,0,0,0,0,0,0,0,0,0,0,0,0,0,0,0,0,0,0,0,0,0,0,0,0,0,0,0,0,0,0,0,0,0,0,0,0,0,0,0,0,0,0,0,0,0,0,0,0,0,0,0,0,0,0,0,0,0,0,0,0,0,0,0,0,0,0,0,0,0,0,0,0,0,0,0,0,0,0,0,0,0,0,0,0,0,0,0,
0,0,0,0,0,0,0,0,0,0,0,0,0,0,0,0,0,0,0,0,0,0,0,0,0,0,0,0,0,0,0,0,0,0,0,0,0,0,0,0,0,0,0,0,0,0,0,0,0,0,0,0,0,0,0,0,0,0,0,0,0,0,0,0,0,0,0,0,0,0,0,0,0,0,0,0,0,0,0,0,0,0,0,0,0,0,0,0,0,0,0,0,0,0,0,0,
0,0,0,0,0,0,0,0,0,0,0,0,0,0,0,0,0,0,0,0,0,0,0,0,0,0,0,0,0,0,0,0,0,0,0,0,0,0,0,0,0,0,0,0,0,0,0,0,0,0,0,0,0,0,0,0,0,0,0,0,0,0,0,0,0,0,0,0,0,0,0,0,0,0,0,0,0,0,0,0,0,0,0,0,0,0,0,0,0,0,0,0,0,0,0,0,
0,0,0,0,0,0,0,0,0,0,0,0,0,0,0,0,0,0,0,0,0,0,0,0,0,0,0,0,0,0,0,0,0,0,0,0,0,0,0,0,0,0,0,0,0,0,0,0,0,0,0,0,0,0,0,0,0,0,0,0,0,0,0,0,0,0,0,0,0,0,0,0,0,0,0,0,0,0,0,0,0,0,0,0,0,0,0,0,0,0,0,0,0,0,0,0,
0,0,0,0,0,0,0,0,0,0,0,0,0,0,0,0,0,0,0,0,0,0,0,0,0,0,0,0,0,0,0,0,0,0,0,0,0,0,0,0,0,0,0,0,0,0,0,0,0,0,0,0,0,0,0,0,0,0,0,0,0,0,0,0,0,0,0,0,0,0,0,0,0,0,0,0,0,0,0,0,0,0,0,0,0,0,0,0,0,0,0,0,0,0,0,0,
0,0,0,0,0,0,0,0,0,0,0,0,0,0,0,0,0,0,0,0,0,0,0,0,0,0,0,0,0,0,0,0,0,0,0,0,0,0,0,0,0,0,0,0,0,0,0,0,0,0,0,0,0,0,0,0,0,0,0,0,0,0,0,0,0,0,0,0,0,0,0,0,0,0,0,0,0,0,0,0,0,0,0,0,0,0,0,0,0,0,0,0,0,0,0,0,
0,0,0,0,0,0,0,0,0,0,0,0,0,0,0,0,0,0,0,0,0,0,0,0,0,0,0,0,0,0,0,0,0,0,0,0,0,0,0,0,0,0,0,0,0,0,0,0,0,0,0,0,0,0,0,0,0,0,0,0,0,0,0,0,0,0,0,0,0,0,0,0,0,0,0,0,0,0,0,0,0,0,0,0,0,0,0,0,0,0,0,0,0,0,0,0,
0,0,0,0,0,0,0,0,0,0,0,0,0,0,0,0,0,0,0,0,0,0,0,0,0,0,0,0,0,0,0,0,0,0,0,0,0,0,0,0,0,0,0,0,0,0,0,0,0,0,0,0,0,0,0,0,0,0,0,0,0,0,0,0,0,0,0,0,0,0,0,0,0,0,0,0,0,0,0,0,0,0,0,0,0,0,0,0,0,0,0,0,0,0,0,0,
0,0,0,0,0,0,0,0,0,0,0,0,0,0,0,0,0,0,0,0,0,0,0,0,0,0,0,0,0,0,0,0,0,0,0,0,0,0,0,0,0,0,0,0,0,0,0,0,0,0,0,0,0,0,0,0,0,0,0,0,0,0,0,0,0,0,0,0,0,0,0,0,0,0,0,0,0,0,0,0,0,0,0,0,0,0,0,0,0,0,0,0,0,0,0,0,
0,0,0,0,0,0,0,0,0,0,0,0,0,0,0,0,0,0,0,0,0,0,0,0,0,0,0,0,0,0,0,0,0,0,0,0,0,0,0,0,0,0,0,0,0,0,0,0,0,0,0,0,0,0,0,0,0,0,0,0,0,0,0,0,0,0,0,0,0,0,0,0,0,0,0,0,0,0,0,0,0,0,0,0,0,0,0,0,0,0,0,0,0,0,0,0,
0,0,0,0,0,0,0,0,0,0,0,0,0,0,0,0,0,0,0,0,0,0,0,0,0,0,0,0,0,0,0,0,0,0,0,0,0,0,0,0,0,0,0,0,0,0,0,0,0,0,0,0,0,0,0,0,0,0,0,0,0,0,0,0,0,0,0,0,0,0,0,0,0,0,0,0,0,0,0,0,0,0,0,0,0,0,0,0,0,0,0,0,0,0,0,0,
0,0,0,0,0,0,0,0,0,0,0,0,0,0,0,0,0,0,0,0,0,0,0,0,0,0,0,0,0,0,0,0,0,0,0,0,0,0,0,0,0,0,0,0,0,0,0,0,0,0,0,0,0,0,0,0,0,0,0,0,0,0,0,0,0,0,0,0,0,0,0,0,0,0,0,0,0,0,0,0,0,0,0,0,0,0,0,0,0,0,0,0,0,0,0,0,
0,0,0,0,0,0,0,0,0,0,0,0,0,0,0,0,0,0,0,0,0,0,0,0,0,0,0,0,0,0,0,0,0,0,0,0,0,0,0,0,0,0,0,0,0,0,0,0,0,0,0,0,0,0,0,0,0,0,0,0,0,0,0,0,0,0,0,0,0,0,0,0,0,0,0,0,0,0,0,0,0,0,0,0,0,0,0,0,0,0,0,0,0,0,0,0,
0,0,0,0,0,0,0,0,0,0,0,0,0,0,0,0,0,0,0,0,0,0,0,0,0,0,0,0,0,0,0,0,0,0,0,0,0,0,0,0,0,0,0,0,0,0,0,0,0,0,0,0,0,0,0,0,0,0,0,0,0,0,0,0,0,0,0,0,0,0,0,0,0,0,0,0,0,0,0,0,0,0,0,0,0,0,0,0,0,0,0,0,0,0,0,0,
0,0,0,0,0,0,0,0,0,0,0,0,0,0,0,0,0,0,0,0,0,0,0,0,0,0,0,0,0,0,0,0,0,0,0,0,0,0,0,0,0,0,0,0,0,0,0,0,0,0,0,0,0,0,0,0,0,0,0,0,0,0,0,0,0,0,0,0,0,0,0,0,0,0,0,0,0,0,0,0,0,0,0,0,0,0,0,0,0,0,0,0,0,0,0,0,
0,0,0,0,0,0,0,0,0,0,0,0,0,0,0,0,0,0,0,0,0,0,0,0,0,0,0,0,0,0,0,0,0,0,0,0,0,0,0,0,0,0,0,0,0,0,0,0,0,0,0,0,0,0,0,0,0,0,0,0,0,0,0,0,0,0,0,0,0,0,0,0,0,0,0,0,0,0,0,0,0,0,0,0,0,0,0,0,0,0,0,0,0,0,0,0,
0,0,0,0,0,0,0,0,0,0,0,0,0,0,0,0,0,0,0,0,0,0,0,0,0,0,0,0,0,0,0,0,0,0,0,0,0,0,0,0,0,0,0,0,0,0,0,0,0,0,0,0,0,0,0,0,0,0,0,0,0,0,0,0,0,0,0,0,0,0,0,0,0,0,0,0,0,0,0,0,0,0,0,0,0,0,0,0,0,0,0,0,0,0,0,0,
0,0,0,0,0,0,0,0,0,0,0,0,0,0,0,0,0,0,0,0,0,0,0,0,0,0,0,0,0,0,0,0,0,0,0,0,0,0,0,0,0,0,0,0,0,0,0,0,0,0,0,0,0,0,0,0,0,0,0,0,0,0,0,0,0,0,0,0,0,0,0,0,0,0,0,0,0,0,0,0,0,0,0,0,0,0,0,0,0,0,0,0,0,0,0,0,
0,0,0,0,0,0,0,0,0,0,0,0,0,0,0,0,0,0,0,0,0,0,0,0,0,0,0,0,0,0,0,0,0,0,0,0,0,0,0,0,0,0,0,0,0,0,0,0,0,0,0,0,0,0,0,0,0,0,0,0,0,0,0,0,0,0,0,0,0,0,0,0,0,0,0,0,0,0,0,0,0,0,0,0,0,0,0,0,0,0,0,0,0,0,0,0,
0,0,0,0,0,0,0,0,0,0,0,0,0,0,0,0,0,0,0,0,0,0,0,0,0,0,0,0,0,0,0,0,0,0,0,0,0,0,0,0,0,0,0,0,0,0,0,0,0,0,0,0,0,0,0,0,0,0,0,0,0,0,0,0,0,0,0,0,0,0,0,0,0,0,0,0,0,0,0,0,0,0,0,0,0,0,0,0,0,0,0,0,0,0,0,0,
0,0,0,0,0,0,0,0,0,0,0,0,0,0,0,0,0,0,0,0,0,0,0,0,0,0,0,0,0,0,0,0,0,0,0,0,0,0,0,0,0,0,0,0,0,0,0,0,0,0,0,0,0,0,0,0,0,0,0,0,0,0,0,0,0,0,0,0,0,0,0,0,0,0,0,0,0,0,0,0,0,0,0,0,0,0,0,0,0,0,0,0,0,0,0,0,
0,0,0,0,0,0,0,0,0,0,0,0,0,0,0,0,0,0,0,0,0,0,0,0,0,0,0,0,0,0,0,0,0,0,0,0,0,0,0,0,0,0,0,0,0,0,0,0,0,0,0,0,0,0,0,0,0,0,0,0,0,0,0,0,0,0,0,0,0,0,0,0,0,0,0,0,0,0,0,0,0,0,0,0,0,0,0,0,0,0,0,0,0,0,0,0,
0,0,0,0,0,0,0,0,0,0,0,0,0,0,0,0,0,0,0,0,0,0,0,0,0,0,0,0,0,0,0,0,0,0,0,0,0,0,0,0,0,0,0,0,0,0,0,0,0,0,0,0,0,0,0,0,0,0,0,0,0,0,0,0,0,0,0,0,0,0,0,0,0,0,0,0,0,0,0,0,0,0,0,0,0,0,0,0,0,0,0,0,0,0,0,0,
0,0,0,0,0,0,0,0,0,0,0,0,0,0,0,0,0,0,0,0,0,0,0,0,0,0,0,0,0,0,0,0,0,0,0,0,0,0,0,0,0,0,0,0,0,0,0,0,0,0,0,0,0,0,0,0,0,0,0,0,0,0,0,0,0,0,0,0,0,0,0,0,0,0,0,0,0,0,0,0,0,0,0,0,0,0,0,0,0,0,0,0,0,0,0,0,
0,0,0,0,0,0,0,0,0,0,0,0,0,0,0,0,0,0,0,0,0,0,0,0,0,0,0,0,0,0,0,0,0,0,0,0,0,0,0,0,0,0,0,0,0,0,0,0,0,0,0,0,0,0,0,0,0,0,0,0,0,0,0,0,0,0,0,0,0,0,0,0,0,0,0,0,0,0,0,0,0,0,0,0,0,0,0,0,0,0,0,0,0,0,0,0,
0,0,0,0,0,0,0,0,0,0,0,0,0,0,0,0,0,0,0,0,0,0,0,0,0,0,0,0,0,0,0,0,0,0,0,0,0,0,0,0,0,0,0,0,0,0,0,0,0,0,0,0,0,0,0,0,0,0,0,0,0,0,0,0,0,0,0,0,0,0,0,0,0,0,0,0,0,0,0,0,0,0,0,0,0,0,0,0,0,0,0,0,0,0,0,0,
0,0,0,0,0,0,0,0,0,0,0,0,0,0,0,0,0,0,0,0,0,0,0,0,0,0,0,0,0,0,0,0,0,0,0,0,0,0,0,0,0,0,0,0,0,0,0,0,0,0,0,0,0,0,0,0,0,0,0,0,0,0,0,0,0,0,0,0,0,0,0,0,0,0,0,0,0,0,0,0,0,0,0,0,0,0,0,0,0,0,0,0,0,0,0,0,
0,0,0,0,0,0,0,0,0,0,0,0,0,0,0,0,0,0,0,0,0,0,0,0,0,0,0,0,0,0,0,0,0,0,0,0,0,0,0,0,0,0,0,0,0,0,0,0,0,0,0,0,0,0,0,0,0,0,0,0,0,0,0,0,0,0,0,0,0,0,0,0,0,0,0,0,0,0,0,0,0,0,0,0,0,0,0,0,0,0,0,0,0,0,0,0,
0,0,0,0,0,0,0,0,0,0,0,0,0,0,0,0,0,0,0,0,0,0,0,0,0,0,0,0,0,0,0,0,0,0,0,0,0,0,0,0,0,0,0,0,0,0,0,0,0,0,0,0,0,0,0,0,0,0,0,0,0,0,0,0,0,0,0,0,0,0,0,0,0,0,0,0,0,0,0,0,0,0,0,0,0,0,0,0,0,0,0,0,0,0,0,0,
0,0,0,0,0,0,0,0,0,0,0,0,0,0,0,0,0,0,0,0,0,0,0,0,0,0,0,0,0,0,0,0,0,0,0,0,0,0,0,0,0,0,0,0,0,0,0,0,0,0,0,0,0,0,0,0,0,0,0,0,0,0,0,0,0,0,0,0,0,0,0,0,0,0,0,0,0,0,0,0,0,0,0,0,0,0,0,0,0,0,0,0,0,0,0,0,
0,0,0,0,0,0,0,0,0,0,0,0,0,0,0,0,0,0,0,0,0,0,0,0,0,0,0,0,0,0,0,0,0,0,0,0,0,0,0,0,0,0,0,0,0,0,0,0,0,0,0,0,0,0,0,0,0,0,0,0,0,0,0,0,0,0,0,0,0,0,0,0,0,0,0,0,0,0,0,0,0,0,0,0,0,0,0,0,0,0,0,0,0,0,0,0,
0,0,0,0,0,0,0,0,0,0,0,0,0,0,0,0,0,0,0,0,0,0,0,0,0,0,0,0,0,0,0,0,0,0,0,0,0,0,0,0,0,0,0,0,0,0,0,0,0,0,0,0,0,0,0,0,0,0,0,0,0,0,0,0,0,0,0,0,0,0,0,0,0,0,0,0,0,0,0,0,0,0,0,0,0,0,0,0,0,0,0,0,0,0,0,0,
0,0,0,0,0,0,0,0,0,0,0,0,0,0,0,0,0,0,0,0,0,0,0,0,0,0,0,0,0,0,0,0,0,0,0,0,0,0,0,0,0,0,0,0,0,0,0,0,0,0,0,0,0,0,0,0,0,0,0,0,0,0,0,0,0,0,0,0,0,0,0,0,0,0,0,0,0,0,0,0,0,0,0,0,0,0,0,0,0,0,0,0,0,0,0,0,
0,0,0,0,0,0,0,0,0,0,0,0,0,0,0,0,0,0,0,0,0,0,0,0,0,0,0,0,0,0,0,0,0,0,0,0,0,0,0,0,0,0,0,0,0,0,0,0,0,0,0,0,0,0,0,0,0,0,0,0,0,0,0,0,0,0,0,0,0,0,0,0,0,0,0,0,0,0,0,0,0,0,0,0,0,0,0,0,0,0,0,0,0,0,0,0,
0,0,0,0,0,0,0,0,0,0,0,0,0,0,0,0,0,0,0,0,0,0,0,0,0,0,0,0,0,0,0,0,0,0,0,0,0,0,0,0,0,0,0,0,0,0,0,0,0,0,0,0,0,0,0,0,0,0,0,0,0,0,0,0,0,0,0,0,0,0,0,0,0,0,0,0,0,0,0,0,0,0,0,0,0,0,0,0,0,0,0,0,0,0,0,0,
0,0,0,0,0,0,0,0,0,0,0,0,0,0,0,0,0,0,0,0,0,0,0,0,0,0,0,0,0,0,0,0,0,0,0,0,0,0,0,0,0,0,0,0,0,0,0,0,0,0,0,0,0,0,0,0,0,0,0,0,0,0,0,0,0,0,0,0,0,0,0,0,0,0,0,0,0,0,0,0,0,0,0,0,0,0,0,0,0,0,0,0,0,0,0,0,
0,0,0,0,0,0,0,0,0,0,0,0,0,0,0,0,0,0,0,0,0,0,0,0,0,0,0,0,0,0,0,0,0,0,0,0,0,0,0,0,0,0,0,0,0,0,0,0,0,0,0,0,0,0,0,0,0,0,0,0,0,0,0,0,0,0,0,0,0,0,0,0,0,0,0,0,0,0,0,0,0,0,0,0,0,0,0,0,0,0,0,0,0,0,0,0,
0,0,0,0,0,0,0,0,0,0,0,0,0,0,0,0,0,0,0,0,0,0,0,0,0,0,0,0,0,0,0,0,0,0,0,0,0,0,0,0,0,0,0,0,0,0,0,0,0,0,0,0,0,0,0,0,0,0,0,0,0,0,0,0,0,0,0,0,0,0,0,0,0,0,0,0,0,0,0,0,0,0,0,0,0,0,0,0,0,0,0,0,0,0,0,0,
0,0,0,0,0,0,0,0,0,0,0,0,0,0,0,0,0,0,0,0,0,0,0,0,0,0,0,0,0,0,0,0,0,0,0,0,0,0,0,0,0,0,0,0,0,0,0,0,0,0,0,0,0,0,0,0,0,0,0,0,0,0,0,0,0,0,0,0,0,0,0,0,0,0,0,0,0,0,0,0,0,0,0,0,0,0,0,0,0,0,0,0,0,0,0,0,
0,0,0,0,0,0,0,0,0,0,0,0,0,0,0,0,0,0,0,0,0,0,0,0,0,0,0,0,0,0,0,0,0,0,0,0,0,0,0,0,0,0,0,0,0,0,0,0,0,0,0,0,0,0,0,0,0,0,0,0,0,0,0,0,0,0,0,0,0,0,0,0,0,0,0,0,0,0,0,0,0,0,0,0,0,0,0,0,0,0,0,0,0,0,0,0,
0,0,0,0,0,0,0,0,0,0,0,0,0,0,0,0,0,0,0,0,0,0,0,0,0,0,0,0,0,0,0,0,0,0,0,0,0,0,0,0,0,0,0,0,0,0,0,0,0,0,0,0,0,0,0,0,0,0,0,0,0,0,0,0,0,0,0,0,0,0,0,0,0,0,0,0,0,0,0,0,0,0,0,0,0,0,0,0,0,0,0,0,0,0,0,0,
0,0,0,0,0,0,0,0,0,0,0,0,0,0,0,0,0,0,0,0,0,0,0,0,0,0,0,0,0,0,0,0,0,0,0,0,0,0,0,0,0,0,0,0,0,0,0,0,0,0,0,0,0,0,0,0,0,0,0,0,0,0,0,0,0,0,0,0,0,0,0,0,0,0,0,0,0,0,0,0,0,0,0,0,0,0,0,0,0,0,0,0,0,0,0,0,
0,0,0,0,0,0,0,0,0,0,0,0,0,0,0,0,0,0,0,0,0,0,0,0,0,0,0,0,0,0,0,0,0,0,0,0,0,0,0,0,0,0,0,0,0,0,0,0,0,0,0,0,0,0,0,0,0,0,0,0,0,0,0,0,0,0,0,0,0,0,0,0,0,0,0,0,0,0,0,0,0,0,0,0,0,0,0,0,0,0,0,0,0,0,0,0,
0,0,0,0,0,0,0,0,0,0,0,0,0,0,0,0,0,0,0,0,0,0,0,0,0,0,0,0,0,0,0,0,0,0,0,0,0,0,0,0,0,0,0,0,0,0,0,0,0,0,0,0,0,0,0,0,0,0,0,0,0,0,0,0,0,0,0,0,0,0,0,0,0,0,0,0,0,0,0,0,0,0,0,0,0,0,0,0,0,0,0,0,0,0,0,0,
0,0,0,0,0,0,0,0,0,0,0,0,0,0,0,0,0,0,0,0,0,0,0,0,0,0,0,0,0,0,0,0,0,0,0,0,0,0,0,0,0,0,0,0,0,0,0,0,0,0,0,0,0,0,0,0,0,0,0,0,0,0,0,0,0,0,0,0,0,0,0,0,0,0,0,0,0,0,0,0,0,0,0,0,0,0,0,0,0,0,0,0,0,0,0,0,
0,0,0,0,0,0,0,0,0,0,0,0,0,0,0,0,0,0,0,0,0,0,0,0,0,0,0,0,0,0,0,0,0,0,0,0,0,0,0,0,0,0,0,0,0,0,0,0,0,0,0,0,0,0,0,0,0,0,0,0,0,0,0,0,0,0,0,0,0,0,0,0,0,0,0,0,0,0,0,0,0,0,0,0,0,0,0,0,0,0,0,0,0,0,0,0,
0,0,0,0,0,0,0,0,0,0,0,0,0,0,0,0,0,0,0,0,0,0,0,0,0,0,0,0,0,0,0,0,0,0,0,0,0,0,0,0,0,0,0,0,0,0,0,0,0,0,0,0,0,0,0,0,0,0,0,0,0,0,0,0,0,0,0,0,0,0,0,0,0,0,0,0,0,0,0,0,0,0,0,0,0,0,0,0,0,0,0,0,0,0,0,0,
0,0,0,0,0,0,0,0,0,0,0,0,0,0,0,0,0,0,0,0,0,0,0,0,0,0,0,0,0,0,0,0,0,0,0,0,0,0,0,0,0,0,0,0,0,0,0,0,0,0,0,0,0,0,0,0,0,0,0,0,0,0,0,0,0,0,0,0,0,0,0,0,0,0,0,0,0,0,0,0,0,0,0,0,0,0,0,0,0,0,0,0,0,0,0,0,
0,0,0,0,0,0,0,0,0,0,0,0,0,0,0,0,0,0,0,0,0,0,0,0,0,0,0,0,0,0,0,0,0,0,0,0,0,0,0,0,0,0,0,0,0,0,0,0,0,0,0,0,0,0,0,0,0,0,0,0,0,0,0,0,0,0,0,0,0,0,0,0,0,0,0,0,0,0,0,0,0,0,0,0,0,0,0,0,0,0,0,0,0,0,0,0,
0,0,0,0,0,0,0,0,0,0,0,0,0,0,0,0,0,0,0,0,0,0,0,0,0,0,0,0,0,0,0,0,0,0,0,0,0,0,0,0,0,0,0,0,0,0,0,0,0,0,0,0,0,0,0,0,0,0,0,0,0,0,0,0,0,0,0,0,0,0,0,0,0,0,0,0,0,0,0,0,0,0,0,0,0,0,0,0,0,0,0,0,0,0,0,0,
0,0,0,0,0,0,0,0,0,0,0,0,0,0,0,0,0,0,0,0,0,0,0,0,0,0,0,0,0,0,0,0,0,0,0,0,0,0,0,0,0,0,0,0,0,0,0,0,0,0,0,0,0,0,0,0,0,0,0,0,0,0,0,0,0,0,0,0,0,0,0,0,0,0,0,0,0,0,0,0,0,0,0,0,0,0,0,0,0,0,0,0,0,0,0,0,
0,0,0,0,0,0,0,0,0,0,0,0,0,0,0,0,0,0,0,0,0,0,0,0,0,0,0,0,0,0,0,0,0,0,0,0,0,0,0,0,0,0,0,0,0,0,0,0,0,0,0,0,0,0,0,0,0,0,0,0,0,0,0,0,0,0,0,0,0,0,0,0,0,0,0,0,0,0,0,0,0,0,0,0,0,0,0,0,0,0,0,0,0,0,0,0,
0,0,0,0,0,0,0,0,0,0,0,0,0,0,0,0,0,0,0,0,0,0,0,0,0,0,0,0,0,0,0,0,0,0,0,0,0,0,0,0,0,0,0,0,0,0,0,0,0,0,0,0,0,0,0,0,0,0,0,0,0,0,0,0,0,0,0,0,0,0,0,0,0,0,0,0,0,0,0,0,0,0,0,0,0,0,0,0,0,0,0,0,0,0,0,0,
0,0,0,0,0,0,0,0,0,0,0,0,0,0,0,0,0,0,0,0,0,0,0,0,0,0,0,0,0,0,0,0,0,0,0,0,0,0,0,0,0,0,0,0,0,0,0,0,0,0,0,0,0,0,0,0,0,0,0,0,0,0,0,0,0,0,0,0,0,0,0,0,0,0,0,0,0,0,0,0,0,0,0,0,0,0,0,0,0,0,0,0,0,0,0,0,
0,0,0,0,0,0,0,0,0,0,0,0,0,0,0,0,0,0,0,0,0,0,0,0,0,0,0,0,0,0,0,0,0,0,0,0,0,0,0,0,0,0,0,0,0,0,0,0,0,0,0,0,0,0,0,0,0,0,0,0,0,0,0,0,0,0,0,0,0,0,0,0,0,0,0,0,0,0,0,0,0,0,0,0,0,0,0,0,0,0,0,0,0,0,0,0,
0,0,0,0,0,0,0,0,0,0,0,0,0,0,0,0,0,0,0,0,0,0,0,0,0,0,0,0,0,0,0,0,0,0,0,0,0,0,0,0,0,0,0,0,0,0,0,0,0,0,0,0,0,0,0,0,0,0,0,0,0,0,0,0,0,0,0,0,0,0,0,0,0,0,0,0,0,0,0,0,0,0,0,0,0,0,0,0,0,0,0,0,0,0,0,0,
0,0,0,0,0,0,0,0,0,0,0,0,0,0,0,0,0,0,0,0,0,0,0,0,0,0,0,0,0,0,0,0,0,0,0,0,0,0,0,0,0,0,0,0,0,0,0,0,0,0,0,0,0,0,0,0,0,0,0,0,0,0,0,0,0,0,0,0,0,0,0,0,0,0,0,0,0,0,0,0,0,0,0,0,0,0,0,0,0,0,0,0,0,0,0,0,
0,0,0,0,0,0,0,0,0,0,0,0,0,0,0,0,0,0,0,0,0,0,0,0,0,0,0,0,0,0,0,0,0,0,0,0,0,0,0,0,0,0,0,0,0,0,0,0,0,0,0,0,0,0,0,0,0,0,0,0,0,0,0,0,0,0,0,0,0,0,0,0,0,0,0,0,0,0,0,0,0,0,0,0,0,0,0,0,0,0,0,0,0,0,0,0,
0,0,0,0,0,0,0,0,0,0,0,0,0,0,0,0,0,0,0,0,0,0,0,0,0,0,0,0,0,0,0,0,0,0,0,0,0,0,0,0,0,0,0,0,0,0,0,0,0,0,0,0,0,0,0,0,0,0,0,0,0,0,0,0,0,0,0,0,0,0,0,0,0,0,0,0,0,0,0,0,0,0,0,0,0,0,0,0,0,0,0,0,0,0,0,0,
0,0,0,0,0,0,0,0,0,0,0,0,0,0,0,0,0,0,0,0,0,0,0,0,0,0,0,0,0,0,0,0,0,0,0,0,0,0,0,0,0,0,0,0,0,0,0,0,0,0,0,0,0,0,0,0,0,0,0,0,0,0,0,0,0,0,0,0,0,0,0,0,0,0,0,0,0,0,0,0,0,0,0,0,0,0,0,0,0,0,0,0,0,0,0,0,
0,0,0,0,0,0,0,0,0,0,0,0,0,0,0,0,0,0,0,0,0,0,0,0,0,0,0,0,0,0,0,0,0,0,0,0,0,0,0,0,0,0,0,0,0,0,0,0,0,0,0,0,0,0,0,0,0,0,0,0,0,0,0,0,0,0,0,0,0,0,0,0,0,0,0,0,0,0,0,0,0,0,0,0,0,0,0,0,0,0,0,0,0,0,0,0,
0,0,0,0,0,0,0,0,0,0,0,0,0,0,0,0,0,0,0,0,0,0,0,0,0,0,0,0,0,0,0,0,0,0,0,0,0,0,0,0,0,0,0,0,0,0,0,0,0,0,0,0,0,0,0,0,0,0,0,0,0,0,0,0,0,0,0,0,0,0,0,0,0,0,0,0,0,0,0,0,0,0,0,0,0,0,0,0,0,0,0,0,0,0,0,0,
0,0,0,0,0,0,0,0,0,0,0,0,0,0,0,0,0,0,0,0,0,0,0,0,0,0,0,0,0,0,0,0,0,0,0,0,0,0,0,0,0,0,0,0,0,0,0,0,0,0,0,0,0,0,0,0,0,0,0,0,0,0,0,0,0,0,0,0,0,0,0,0,0,0,0,0,0,0,0,0,0,0,0,0,0,0,0,0,0,0,0,0,0,0,0,0,
0,0,0,0,0,0,0,0,0,0,0,0,0,0,0,0,0,0,0,0,0,0,0,0,0,0,0,0,0,0,0,0,0,0,0,0,0,0,0,0,0,0,0,0,0,0,0,0,0,0,0,0,0,0,0,0,0,0,0,0,0,0,0,0,0,0,0,0,0,0,0,0,0,0,0,0,0,0,0,0,0,0,0,0,0,0,0,0,0,0,0,0,0,0,0,0,
0,0,0,0,0,0,0,0,0,0,0,0,0,0,0,0,0,0,0,0,0,0,0,0,0,0,0,0,0,0,0,0,0,0,0,0,0,0,0,0,0,0,0,0,0,0,0,0,0,0,0,0,0,0,0,0,0,0,0,0,0,0,0,0,0,0,0,0,0,0,0,0,0,0,0,0,0,0,0,0,0,0,0,0,0,0,0,0,0,0,0,0,0,0,0,0,
0,0,0,0,0,0,0,0,0,0,0,0,0,0,0,0,0,0,0,0,0,0,0,0,0,0,0,0,0,0,0,0,0,0,0,0,0,0,0,0,0,0,0,0,0,0,0,0,0,0,0,0,0,0,0,0,0,0,0,0,0,0,0,0,0,0,0,0,0,0,0,0,0,0,0,0,0,0,0,0,0,0,0,0,0,0,0,0,0,0,0,0,0,0,0,0,
0,0,0,0,0,0,0,0,0,0,0,0,0,0,0,0,0,0,0,0,0,0,0,0,0,0,0,0,0,0,0,0,0,0,0,0,0,0,0,0,0,0,0,0,0,0,0,0,0,0,0,0,0,0,0,0,0,0,0,0,0,0,0,0,0,0,0,0,0,0,0,0,0,0,0,0,0,0,0,0,0,0,0,0,0,0,0,0,0,0,0,0,0,0,0,0,
0,0,0,0,0,0,0,0,0,0,0,0,0,0,0,0,0,0,0,0,0,0,0,0,0,0,0,0,0,0,0,0,0,0,0,0,0,0,0,0,0,0,0,0,0,0,0,0,0,0,0,0,0,0,0,0,0,0,0,0,0,0,0,0,0,0,0,0,0,0,0,0,0,0,0,0,0,0,0,0,0,0,0,0,0,0,0,0,0,0,0,0,0,0,0,0,
0,0,0,0,0,0,0,0,0,0,0,0,0,0,0,0,0,0,0,0,0,0,0,0,0,0,0,0,0,0,0,0,0,0,0,0,0,0,0,0,0,0,0,0,0,0,0,0,0,0,0,0,0,0,0,0,0,0,0,0,0,0,0,0,0,0,0,0,0,0,0,0,0,0,0,0,0,0,0,0,0,0,0,0,0,0,0,0,0,0,0,0,0,0,0,0,
0,0,0,0,0,0,0,0,0,0,0,0,0,0,0,0,0,0,0,0,0,0,0,0,0,0,0,0,0,0,0,0,0,0,0,0,0,0,0,0,0,0,0,0,0,0,0,0,0,0,0,0,0,0,0,0,0,0,0,0,0,0,0,0,0,0,0,0,0,0,0,0,0,0,0,0,0,0,0,0,0,0,0,0,0,0,0,0,0,0,0,0,0,0,0,0,
0,0,0,0,0,0,0,0,0,0,0,0,0,0,0,0,0,0,0,0,0,0,0,0,0,0,0,0,0,0,0,0,0,0,0,0,0,0,0,0,0,0,0,0,0,0,0,0,0,0,0,0,0,0,0,0,0,0,0,0,0,0,0,0,0,0,0,0,0,0,0,0,0,0,0,0,0,0,0,0,0,0,0,0,0,0,0,0,0,0,0,0,0,0,0,0,
0,0,0,0,0,0,0,0,0,0,0,0,0,0,0,0,0,0,0,0,0,0,0,0,0,0,0,0,0,0,0,0,0,0,0,0,0,0,0,0,0,0,0,0,0,0,0,0,0,0,0,0,0,0,0,0,0,0,0,0,0,0,0,0,0,0,0,0,0,0,0,0,0,0,0,0,0,0,0,0,0,0,0,0,0,0,0,0,0,0,0,0,0,0,0,0,
0,0,0,0,0,0,0,0,0,0,0,0,0,0,0,0,0,0,0,0,0,0,0,0,0,0,0,0,0,0,0,0,0,0,0,0,0,0,0,0,0,0,0,0,0,0,0,0,0,0,0,0,0,0,0,0,0,0,0,0,0,0,0,0,0,0,0,0,0,0,0,0,0,0,0,0,0,0,0,0,0,0,0,0,0,0,0,0,0,0,0,0,0,0,0,0,
0,0,0,0,0,0,0,0,0,0,0,0,0,0,0,0,0,0,0,0,0,0,0,0,0,0,0,0,0,0,0,0,0,0,0,0,0,0,0,0,0,0,0,0,0,0,0,0,0,0,0,0,0,0,0,0,0,0,0,0,0,0,0,0,0,0,0,0,0,0,0,0,0,0,0,0,0,0,0,0,0,0,0,0,0,0,0,0,0,0,0,0,0,0,0,0,
0,0,0,0,0,0,0,0,0,0,0,0,0,0,0,0,0,0,0,0,0,0,0,0,0,0,0,0,0,0,0,0,0,0,0,0,0,0,0,0,0,0,0,0,0,0,0,0,0,0,0,0,0,0,0,0,0,0,0,0,0,0,0,0,0,0,0,0,0,0,0,0,0,0,0,0,0,0,0,0,0,0,0,0,0,0,0,0,0,0,0,0,0,0,0,0,
0,0,0,0,0,0,0,0,0,0,0,0,0,0,0,0,0,0,0,0,0,0,0,0,0,0,0,0,0,0,0,0,0,0,0,0,0,0,0,0,0,0,0,0,0,0,0,0,0,0,0,0,0,0,0,0,0,0,0,0,0,0,0,0,0,0,0,0,0,0,0,0,0,0,0,0,0,0,0,0,0,0,0,0,0,0,0,0,0,0,0,0,0,0,0,0,
0,0,0,0,0,0,0,0,0,0,0,0,0,0,0,0,0,0,0,0,0,0,0,0,0,0,0,0,0,0,0,0,0,0,0,0,0,0,0,0,0,0,0,0,0,0,0,0,0,0,0,0,0,0,0,0,0,0,0,0,0,0,0,0,0,0,0,0,0,0,0,0,0,0,0,0,0,0,0,0,0,0,0,0,0,0,0,0,0,0,0,0,0,0,0,0,
0,0,0,0,0,0,0,0,0,0,0,0,0,0,0,0,0,0,0,0,0,0,0,0,0,0,0,0,0,0,0,0,0,0,0,0,0,0,0,0,0,0,0,0,0,0,0,0,0,0,0,0,0,0,0,0,0,0,0,0,0,0,0,0,0,0,0,0,0,0,0,0,0,0,0,0,0,0,0,0,0,0,0,0,0,0,0,0,0,0,0,0,0,0,0,0,
0,0,0,0,0,0,0,0,0,0,0,0,0,0,0,0,0,0,0,0,0,0,0,0,0,0,0,0,0,0,0,0,0,0,0,0,0,0,0,0,0,0,0,0,0,0,0,0,0,0,0,0,0,0,0,0,0,0,0,0,0,0,0,0,0,0,0,0,0,0,0,0,0,0,0,0,0,0,0,0,0,0,0,0,0,0,0,0,0,0,0,0,0,0,0,0,
0,0,0,0,0,0,0,0,0,0,0,0,0,0,0,0,0,0,0,0,0,0,0,0,0,0,0,0,0,0,0,0,0,0,0,0,0,0,0,0,0,0,0,0,0,0,0,0,0,0,0,0,0,0,0,0,0,0,0,0,0,0,0,0,0,0,0,0,0,0,0,0,0,0,0,0,0,0,0,0,0,0,0,0,0,0,0,0,0,0,0,0,0,0,0,0,
0,0,0,0,0,0,0,0,0,0,0,0,0,0,0,0,0,0,0,0,0,0,0,0,0,0,0,0,0,0,0,0,0,0,0,0,0,0,0,0,0,0,0,0,0,0,0,0,0,0,0,0,0,0,0,0,0,0,0,0,0,0,0,0,0,0,0,0,0,0,0,0,0,0,0,0,0,0,0,0,0,0,0,0,0,0,0,0,0,0,0,0,0,0,0,0,
0,0,0,0,0,0,0,0,0,0,0,0,0,0,0,0,0,0,0,0,0,0,0,0,0,0,0,0,0,0,0,0,0,0,0,0,0,0,0,0,0,0,0,0,0,0,0,0,0,0,0,0,0,0,0,0,0,0,0,0,0,0,0,0,0,0,0,0,0,0,0,0,0,0,0,0,0,0,0,0,0,0,0,0,0,0,0,0,0,0,0,0,0,0,0,0,
0,0,0,0,0,0,0,0,0,0,0,0,0,0,0,0,0,0,0,0,0,0,0,0,0,0,0,0,0,0,0,0,0,0,0,0,0,0,0,0,0,0,0,0,0,0,0,0,0,0,0,0,0,0,0,0,0,0,0,0,0,0,0,0,0,0,0,0,0,0,0,0,0,0,0,0,0,0,0,0,0,0,0,0,0,0,0,0,0,0,0,0,0,0,0,0,
0,0,0,0,0,0,0,0,0,0,0,0,0,0,0,0,0,0,0,0,0,0,0,0,0,0,0,0,0,0,0,0,0,0,0,0,0,0,0,0,0,0,0,0,0,0,0,0,0,0,0,0,0,0,0,0,0,0,0,0,0,0,0,0,0,0,0,0,0,0,0,0,0,0,0,0,0,0,0,0,0,0,0,0,0,0,0,0,0,0,0,0,0,0,0,0,
0,0,0,0,0,0,0,0,0,0,0,0,0,0,0,0,0,0,0,0,0,0,0,0,0,0,0,0,0,0,0,0,0,0,0,0,0,0,0,0,0,0,0,0,0,0,0,0,0,0,0,0,0,0,0,0,0,0,0,0,0,0,0,0,0,0,0,0,0,0,0,0,0,0,0,0,0,0,0,0,0,0,0,0,0,0,0,0,0,0,0,0,0,0,0,0,
0,0,0,0,0,0,0,0,0,0,0,0,0,0,0,0,0,0,0,0,0,0,0,0,0,0,0,0,0,0,0,0,0,0,0,0,0,0,0,0,0,0,0,0,0,0,0,0,0,0,0,0,0,0,0,0,0,0,0,0,0,0,0,0,0,0,0,0,0,0,0,0,0,0,0,0,0,0,0,0,0,0,0,0,0,0,0,0,0,0,0,0,0,0,0,0,
0,0,0,0,0,0,0,0,0,0,0,0,0,0,0,0,0,0,0,0,0,0,0,0,0,0,0,0,0,0,0,0,0,0,0,0,0,0,0,0,0,0,0,0,0,0,0,0,0,0,0,0,0,0,0,0,0,0,0,0,0,0,0,0,0,0,0,0,0,0,0,0,0,0,0,0,0,0,0,0,0,0,0,0,0,0,0,0,0,0,0,0,0,0,0,0,
0,0,0,0,0,0,0,0,0,0,0,0,0,0,0,0,0,0,0,0,0,0,0,0,0,0,0,0,0,0,0,0,0,0,0,0,0,0,0,0,0,0,0,0,0,0,0,0,0,0,0,0,0,0,0,0,0,0,0,0,0,0,0,0,0,0,0,0,0,0,0,0,0,0,0,0,0,0,0,0,0,0,0,0,0,0,0,0,0,0,0,0,0,0,0,0,
0,0,0,0,0,0,0,0,0,0,0,0,0,0,0,0,0,0,0,0,0,0,0,0,0,0,0,0,0,0,0,0,0,0,0,0,0,0,0,0,0,0,0,0,0,0,0,0,0,0,0,0,0,0,0,0,0,0,0,0,0,0,0,0,0,0,0,0,0,0,0,0,0,0,0,0,0,0,0,0,0,0,0,0,0,0,0,0,0,0,0,0,0,0,0,0
</data>
 </layer>
 <objectgroup id="4" name="World Objects" />
 <objectgroup id="5" name="Spawns">
  <object id="1" name="player_start" x="1536" y="1536">
   <point />
  </object>
 </objectgroup>
 <objectgroup id="6" name="Regions" />
 <objectgroup id="7" name="Collisions" />
</map>