<?xml version="1.0" encoding="UTF-8"?>
<map version="1.10" tiledversion="1.12.2" orientation="orthogonal" renderorder="right-down" width="30" height="20" tilewidth="32" tileheight="32" infinite="0" nextlayerid="6" nextobjectid="60">
 <tileset firstgid="1" source="TileSnow.tsx"/>
 <tileset firstgid="133" source="TileCliff.tsx"/>
 <tileset firstgid="245" source="TreeAndStoneSprites.tsx"/>
 <layer id="1" name="Ground" width="30" height="20" locked="1">
  <data encoding="csv">
81,81,81,81,81,81,81,81,81,81,81,81,81,3,3,3,3,3,3,3,3,3,3,3,3,3,3,3,18,18,
81,81,81,81,81,81,81,81,81,81,81,81,3,3,3,3,3,3,3,3,3,3,3,3,3,3,3,6,18,18,
81,81,81,81,81,46,47,48,81,81,81,81,3,3,3,3,3,3,3,7,8,9,3,3,3,3,3,115,18,18,
46,47,48,81,81,58,59,60,81,81,3,3,3,3,3,3,3,3,3,19,20,21,3,3,3,3,3,6,18,18,
58,59,60,81,81,70,71,72,81,3,3,3,3,3,3,3,3,3,3,31,32,33,3,3,3,3,3,6,18,18,
70,71,81,81,81,81,81,81,81,3,3,3,3,3,3,3,3,3,3,3,3,3,3,3,3,3,6,6,18,18,
81,81,81,81,81,81,81,81,3,3,3,3,3,3,3,3,3,3,3,3,3,3,3,3,3,3,6,6,18,18,
81,81,81,81,81,81,81,81,3,3,3,3,3,3,3,3,3,3,3,3,3,3,3,3,3,3,6,6,18,18,
81,81,81,81,3,3,3,3,3,3,3,3,3,3,10,11,12,3,3,3,3,3,3,3,3,3,6,6,18,18,
81,81,81,3,3,25,26,27,3,3,3,13,13,3,22,23,24,3,3,3,3,3,3,3,3,3,6,6,18,18,
81,81,3,3,3,37,38,39,3,3,3,3,3,3,34,35,36,3,3,3,3,3,7,8,9,3,6,6,18,18,
3,3,3,3,3,3,3,3,3,3,3,3,3,3,3,3,3,3,3,3,3,3,19,20,21,3,6,6,18,18,
3,3,3,3,3,3,3,3,3,3,3,3,3,3,3,3,3,3,3,3,3,3,31,32,33,3,6,6,18,18,
3,3,3,3,3,3,3,3,3,3,3,3,3,3,3,3,3,3,3,3,3,3,3,3,3,3,6,6,18,18,
3,3,3,3,3,7,8,9,3,3,3,3,3,3,3,3,3,3,3,3,3,3,3,3,3,3,6,6,18,18,
3,3,3,3,3,19,20,21,3,3,3,3,3,3,3,3,13,3,3,3,3,3,3,3,3,3,6,6,18,18,
3,3,3,3,3,31,32,33,3,3,3,3,3,3,3,3,13,13,13,13,3,3,3,3,3,3,6,6,18,18,
3,3,3,3,3,3,3,3,3,3,136,137,138,139,140,3,3,3,3,13,3,3,3,3,3,3,3,6,18,18,
25,26,27,3,3,3,3,3,3,3,144,145,146,147,148,3,3,3,3,3,15,16,17,18,3,3,3,6,18,18,
37,38,39,3,3,3,3,3,3,3,152,153,154,155,156,3,3,3,3,3,27,28,29,30,3,3,3,6,18,18
</data>
 </layer>
 <layer id="2" name="Objects on Ground" width="30" height="20" locked="1">
  <data encoding="csv">
0,0,0,0,0,0,0,0,0,0,0,0,0,0,0,0,0,791,792,0,0,0,0,0,0,0,0,0,0,0,
0,0,0,0,0,0,0,0,0,0,0,0,0,0,0,629,630,818,819,0,0,0,0,0,0,0,0,0,0,0,
0,0,0,0,0,0,0,0,0,0,0,0,0,629,630,656,657,0,0,0,0,0,0,0,0,0,0,17,0,0,
0,0,0,0,0,0,0,0,0,0,0,0,0,656,657,683,684,0,0,0,0,0,0,0,0,0,0,115,0,0,
0,0,0,0,0,0,0,0,0,0,0,0,0,683,684,710,711,629,630,0,0,0,0,791,792,0,0,0,0,0,
0,0,0,0,0,0,0,0,0,0,0,0,0,710,711,791,792,656,657,0,0,0,0,818,819,0,0,0,0,0,
0,0,0,0,0,0,0,0,0,0,805,806,807,0,0,818,819,683,684,0,0,0,0,0,0,0,0,0,0,0,
0,0,0,0,0,0,0,0,0,0,832,833,834,0,0,0,0,710,711,0,0,0,0,0,0,0,0,0,0,0,
0,0,0,0,0,0,0,0,0,0,0,0,0,0,0,0,0,0,0,0,0,0,0,0,0,0,0,0,0,0,
0,0,0,0,0,0,0,0,0,0,0,0,0,0,0,0,0,0,0,0,0,0,0,0,0,0,0,0,0,0,
0,0,0,0,0,0,0,0,0,0,0,0,0,0,0,0,0,0,0,0,0,0,0,0,0,0,0,0,0,0,
0,0,0,0,0,0,0,0,0,0,0,0,0,0,0,0,0,0,0,0,0,0,0,0,0,0,0,0,0,0,
791,792,0,0,0,0,0,0,0,0,0,0,0,0,0,0,0,0,0,0,0,0,0,0,0,0,0,0,0,0,
818,819,629,630,0,0,0,0,0,0,0,0,0,798,799,800,0,0,0,0,0,629,630,0,791,792,0,0,0,0,
0,0,656,657,0,0,0,0,0,791,792,0,0,825,826,827,0,0,0,0,0,656,657,0,818,819,0,0,0,0,
0,0,683,684,0,0,0,0,0,818,819,0,0,0,0,0,0,0,0,0,0,683,684,0,656,657,0,0,0,0,
0,0,710,711,0,0,0,0,0,0,0,0,0,0,0,791,792,0,0,0,0,710,805,806,807,684,0,0,0,0,
0,0,0,0,0,0,0,0,0,0,0,0,0,0,0,818,819,0,0,0,0,0,832,833,834,711,0,0,0,0,
0,0,0,0,0,0,0,0,0,0,0,0,0,0,0,0,0,0,0,0,0,0,0,0,0,0,0,0,0,0,
0,0,0,0,0,0,0,0,0,0,0,0,0,0,0,0,0,0,0,0,0,0,0,0,0,0,0,0,0,0
</data>
 </layer>
 <objectgroup id="5" name="Regions">
  <object id="59" name="return_to_main_map" x="863.218" y="95.4023" width="33.3333" height="32.1839">
   <properties>
    <property name="destination_map" value="testmap2"/>
    <property name="destination_spawn" value="player_start"/>
    <property name="region_type" value="map_transition"/>
   </properties>
  </object>
 </objectgroup>
 <objectgroup id="3" name="Collisions" visible="0" locked="1">
  <object id="3" x="581.333" y="236"/>
  <object id="4" x="581.333" y="213.333" width="1.33333"/>
  <object id="5" x="580" y="210.667" width="4" height="25.3333"/>
  <object id="6" x="805.333" y="524" width="1.33333" height="34.6667"/>
  <object id="7" x="705.333" y="484" width="2.66667" height="21.3333"/>
  <object id="8" x="708" y="488" width="6.66667" height="18.6667"/>
  <object id="9" x="93.3333" y="492" width="13.3333" height="40"/>
  <object id="10" x="448" y="144" width="8" height="30.6667"/>
  <object id="11" x="510.667" y="106.667" width="10.6667" height="37.3333"/>
  <object id="12" x="333.333" y="224" width="54.6667" height="21.3333"/>
  <object id="13" x="506.667" y="192" width="18.6667" height="12"/>
  <object id="14" x="758.667" y="164" width="29.3333" height="8"/>
  <object id="15" x="573.333" y="30.6667" width="18.6667" height="14.6667"/>
  <object id="16" x="313.333" y="486.667" width="20" height="8"/>
  <object id="17" x="320" y="480" width="17.3333" height="12"/>
  <object id="18" x="26.6667" y="417.333" width="21.3333" height="13.3333"/>
  <object id="19" x="504" y="540" width="22.6667" height="17.3333"/>
  <object id="20" x="714.667" y="544" width="56" height="20"/>
  <object id="21" x="793.333" y="444" width="22.6667" height="22.6667"/>
  <object id="22" x="4" y="4" width="246.667" height="246.667"/>
  <object id="23" x="256" y="8" width="125.333" height="80"/>
  <object id="24" x="386.667" y="2.66667" width="25.3333" height="26.6667"/>
  <object id="25" x="261.333" y="98.6667" width="57.3333" height="26.6667"/>
  <object id="26" x="260" y="134.667" width="21.3333" height="45.3333"/>
  <object id="27" x="5.33333" y="258.667" width="52" height="90.6667"/>
  <object id="28" x="69.3333" y="258.667" width="57.3333" height="22.6667"/>
  <object id="29" x="70.6667" y="288" width="22.6667" height="29.3333"/>
  <object id="30" x="432" y="430.667" width="21.3333" height="14.6667"/>
  <object id="31" x="461.333" y="449.333" width="17.3333" height="10.6667"/>
  <object id="32" x="453.333" y="445.333" width="20" height="9.33333"/>
  <object id="33" x="740" y="348" width="21.3333" height="45.3333"/>
  <object id="34" x="648" y="93.3333" width="17.3333" height="42.6667"/>
  <object id="35" x="192" y="474.667" width="22.6667" height="45.3333"/>
  <object id="36" x="480" y="290.667" width="30.6667" height="36"/>
  <object id="50" x="924" y="657.333" width="1.33333"/>
  <object id="54" x="390.667" y="-53.3333"/>
 </objectgroup>
 <objectgroup id="4" name="Spawns" visible="0" locked="1">
  <object id="37" name="player_start" x="397.333" y="584">
   <point/>
  </object>
  <object id="57" name="entrance" x="755.03" y="496.097">
   <point/>
  </object>
 </objectgroup>
</map>
