<?xml version="1.0" encoding="UTF-8"?>
<map version="1.10" tiledversion="1.12.2" orientation="orthogonal" renderorder="right-down" width="60" height="40" tilewidth="32" tileheight="32" infinite="0" nextlayerid="6" nextobjectid="94">
 <tileset firstgid="1" source="TileSnow.tsx"/>
 <tileset firstgid="133" source="TileCliff.tsx"/>
 <tileset firstgid="245" source="TreeAndStoneSprites.tsx"/>
 <tileset firstgid="839" source="TileGrass.tsx"/>
 <tileset firstgid="1008" source="TileCliffMountains.tsx"/>
 <layer id="1" name="Ground" width="60" height="40" locked="1">
  <data encoding="csv">
81,81,81,81,81,81,81,81,81,81,81,81,81,3,3,3,3,3,3,3,3,3,3,3,3,3,3,3,4,5,6,7,8,9,4,4,4,4,4,5,6,10,11,4,5,6,6,6,6,6,6,6,6,6,6,6,6,6,6,6,
81,81,81,81,81,81,81,81,81,81,81,81,3,3,3,3,3,3,3,3,3,3,3,3,3,3,3,6,16,17,18,19,20,21,16,16,16,16,16,17,18,22,23,4,5,6,18,18,18,18,18,18,18,6,6,6,6,6,6,6,
81,81,81,81,81,46,47,48,81,81,81,81,3,3,3,3,3,3,3,7,8,9,3,3,3,3,3,6,28,29,30,31,32,33,28,28,28,28,28,29,30,34,35,16,17,18,30,6,30,30,30,30,30,30,30,30,30,30,30,30,
46,47,48,81,81,58,59,60,81,81,3,3,3,3,3,3,3,3,3,19,20,21,3,3,3,3,3,6,4,5,6,4,5,6,28,29,30,30,4,5,6,4,5,28,29,30,6,6,6,6,6,6,6,6,6,6,6,6,6,6,
58,59,60,81,81,70,71,72,81,3,3,3,3,3,3,3,3,3,3,31,32,33,3,3,3,3,3,6,16,17,18,16,17,18,28,28,29,30,16,17,18,16,17,6,6,6,6,6,6,6,6,6,6,6,6,6,6,6,6,6,
70,71,81,81,81,81,81,81,81,3,3,3,3,3,3,3,3,3,3,3,3,3,3,3,3,3,6,6,28,29,30,28,29,30,28,28,29,30,28,29,30,28,6,6,6,6,6,6,6,6,6,6,6,6,6,6,6,6,6,6,
81,81,81,81,81,81,81,81,3,3,3,3,3,3,3,3,3,3,3,3,3,3,3,3,3,3,6,6,4,5,6,28,29,4,28,29,30,6,4,5,6,6,4,5,6,6,6,6,6,6,6,6,6,6,6,6,6,6,6,6,
81,81,81,81,81,81,81,81,3,3,3,3,3,3,3,3,3,3,3,3,3,3,3,3,3,3,6,6,16,17,4,4,4,16,28,29,30,18,16,17,18,18,6,6,6,6,6,6,6,6,6,6,6,6,6,6,6,6,6,6,
81,81,81,81,3,3,3,3,3,3,3,3,3,3,10,11,12,3,3,3,3,3,3,3,3,3,6,6,28,4,16,16,16,28,28,29,30,30,28,29,30,30,28,6,6,6,6,6,6,6,6,6,10,11,12,6,6,6,6,6,
81,81,81,3,3,25,26,27,3,3,3,13,13,3,22,23,24,3,3,3,3,3,3,3,3,3,6,6,4,16,28,28,28,28,29,30,5,6,4,4,5,6,4,5,6,6,6,6,6,6,6,6,22,23,24,6,6,6,6,6,
81,81,3,3,3,37,38,39,3,3,3,3,3,3,34,35,36,3,3,3,3,3,7,8,9,3,6,6,16,28,28,29,30,16,17,16,17,18,16,16,17,4,4,5,6,18,6,6,6,6,6,6,6,35,36,6,6,6,6,6,
3,3,3,3,3,3,3,3,3,3,3,3,3,3,3,3,3,3,3,3,3,3,19,20,21,3,6,6,4,28,29,30,30,6,4,4,4,4,5,6,29,16,4,5,6,30,18,6,6,6,6,6,6,6,6,6,6,6,6,6,
3,3,3,3,3,3,3,3,3,3,3,3,3,3,3,3,3,3,3,3,3,3,31,32,33,3,6,6,16,16,28,29,30,18,16,16,16,4,4,4,4,5,6,5,6,30,30,6,6,6,6,6,6,6,6,6,6,6,6,6,
3,3,3,3,3,3,3,3,3,3,3,3,3,3,3,3,3,3,3,3,3,3,3,3,3,3,4,4,4,4,28,29,30,30,6,28,28,16,16,16,4,5,6,5,6,6,6,6,6,6,6,6,6,6,6,6,6,6,0,6,
3,3,3,3,3,7,8,9,3,3,3,3,3,3,3,3,3,3,3,3,3,3,3,3,3,4,16,16,16,16,16,28,29,30,6,18,18,28,28,28,16,4,5,6,18,6,6,6,6,6,6,6,6,6,6,6,6,6,6,6,
3,3,3,3,3,19,20,21,3,3,3,3,3,3,3,3,13,3,3,3,3,3,3,3,3,16,28,28,28,4,4,28,29,30,18,30,30,18,18,18,28,4,4,5,6,6,6,6,6,6,6,6,6,6,6,6,6,6,6,6,
3,3,3,3,3,31,32,33,3,3,3,3,3,3,3,3,13,13,13,13,3,3,3,3,3,28,28,29,30,16,16,16,28,29,30,29,30,30,30,30,18,16,4,5,6,6,6,6,6,6,6,6,6,6,6,6,6,6,6,6,
3,3,3,3,3,3,3,3,3,3,136,137,138,139,140,3,3,3,3,13,3,3,3,3,3,28,29,30,6,28,28,28,28,29,30,6,6,4,5,6,6,6,6,6,6,10,11,12,6,6,6,6,6,6,6,6,6,7,8,9,
25,26,27,3,3,3,3,3,3,3,144,145,146,147,148,3,3,3,3,3,15,16,17,18,3,28,29,30,18,18,18,18,18,18,18,18,18,6,6,18,18,18,18,18,18,22,23,24,6,6,6,6,6,6,6,6,6,19,20,21,
37,38,39,3,3,3,3,3,3,3,152,153,154,155,156,3,3,3,3,3,27,28,29,30,3,28,29,30,30,30,30,30,30,30,30,30,30,18,18,30,30,30,30,30,30,34,35,36,6,6,6,6,6,6,6,6,6,31,32,33,
878,879,880,881,882,972,972,921,922,923,972,972,972,973,974,975,972,972,972,972,972,972,972,972,972,972,972,972,972,972,972,972,972,972,972,28,29,30,30,972,972,972,972,972,6,6,6,6,6,6,6,6,6,6,6,6,6,6,6,6,
891,892,893,894,895,972,972,934,935,936,972,972,972,986,987,988,972,972,972,972,972,972,972,972,972,972,972,972,972,855,855,855,972,972,972,972,972,972,972,972,972,972,972,972,972,6,6,6,6,6,6,6,6,6,6,6,6,6,6,6,
904,905,906,907,908,972,972,947,948,949,972,972,972,999,1000,1001,927,928,929,972,972,855,855,855,855,855,855,855,976,977,978,979,980,972,972,972,972,972,972,972,972,972,972,972,6,6,6,6,6,6,6,6,6,6,6,6,6,6,6,6,
917,918,919,920,921,922,972,972,972,972,972,972,972,972,972,972,940,941,942,972,972,855,855,855,855,855,855,855,855,990,991,992,993,972,972,972,972,972,972,972,972,972,972,972,6,6,6,6,6,6,6,6,6,6,6,6,6,6,6,6,
930,931,932,933,934,935,922,923,972,972,972,972,972,972,972,972,972,954,972,972,972,855,855,855,855,855,855,855,855,1003,1004,1005,1006,972,972,972,973,974,975,972,972,972,972,972,6,6,6,6,6,6,6,6,6,6,6,6,6,6,6,6,
943,944,945,946,947,948,935,936,1002,1003,972,972,972,972,972,972,966,967,972,972,972,855,855,855,855,855,855,855,855,972,972,972,972,972,972,972,972,987,988,972,972,972,972,972,972,6,6,6,6,6,6,6,6,6,6,6,6,6,6,6,
956,957,958,959,960,961,950,951,952,953,954,955,920,921,922,923,972,972,972,972,972,855,855,855,855,855,855,855,855,972,972,972,972,972,972,972,999,1000,1001,972,972,972,972,972,972,6,6,6,6,6,6,6,6,6,6,6,6,6,6,6,
969,970,971,972,973,974,963,964,965,966,967,968,933,934,935,936,972,972,972,972,972,855,855,855,855,855,855,855,972,972,972,972,972,972,972,972,972,972,972,972,972,972,972,972,6,6,6,6,6,6,6,6,6,6,6,6,6,6,6,6,
982,983,984,985,986,987,976,977,978,979,980,981,946,947,948,949,972,972,972,972,972,972,972,972,855,972,972,972,972,972,972,972,972,855,855,972,972,972,972,972,972,972,972,972,6,6,6,6,6,6,6,6,6,6,6,6,6,6,6,6,
995,996,997,998,999,1000,989,990,991,992,993,994,972,972,972,972,972,972,972,973,974,975,972,972,972,972,972,972,972,972,972,972,972,855,855,973,974,975,972,972,972,972,972,972,6,6,6,6,6,6,6,6,6,6,6,6,6,6,6,6,
973,974,975,920,921,922,923,1003,1004,1005,1006,1007,972,972,972,972,855,855,972,986,987,988,972,972,972,972,972,972,972,972,972,972,855,855,972,986,987,988,972,923,972,972,972,972,6,6,6,6,6,6,6,6,6,6,6,6,6,6,6,6,
986,987,988,933,934,935,936,972,972,930,931,932,933,972,972,972,972,972,972,999,1000,1001,972,972,972,972,972,972,972,972,972,855,855,972,972,999,1000,1001,923,972,972,972,972,972,6,6,6,6,6,6,6,6,6,6,6,6,6,6,6,6,
999,1000,1001,946,947,948,949,972,972,943,944,945,946,972,972,972,972,972,972,972,972,972,972,972,972,972,972,972,972,972,855,855,972,972,972,972,972,972,972,972,972,855,855,855,6,6,6,6,6,6,6,6,6,6,6,6,6,6,6,6,
972,972,972,972,972,972,972,972,972,956,957,958,959,972,972,972,972,972,972,972,972,972,972,972,972,972,972,972,972,855,855,972,972,972,972,972,972,972,977,978,979,980,981,972,6,6,6,6,6,6,6,6,6,6,6,6,6,6,6,6,
972,972,972,972,972,972,972,972,972,972,972,972,972,972,972,972,972,972,972,972,972,972,972,972,1011,1012,1013,1014,1015,972,972,972,972,972,972,972,972,989,990,991,992,993,994,972,6,6,6,6,6,6,6,6,6,6,6,6,6,6,6,6,
972,972,972,972,972,972,972,972,972,972,972,972,972,972,972,972,972,972,972,972,972,972,972,972,1019,1020,1021,1022,1023,972,972,972,972,972,972,972,972,1002,1003,1004,1005,1006,1007,972,972,6,6,6,6,6,6,6,6,6,6,6,6,6,6,6,
972,972,972,972,972,972,972,972,972,972,972,972,972,972,972,972,972,972,972,972,972,972,972,972,1027,1028,1029,1030,1031,972,972,972,972,972,972,972,972,972,972,972,972,972,972,972,972,6,6,6,6,6,6,6,6,6,6,6,6,6,6,6,
972,972,972,972,972,972,972,972,972,972,972,972,972,972,972,972,972,972,972,972,972,6,6,6,6,6,6,6,6,6,6,6,6,6,6,6,6,972,972,6,6,6,6,972,972,6,6,6,6,6,6,6,6,6,6,6,6,6,6,6,
972,972,972,972,972,972,972,972,972,972,972,972,972,972,972,972,972,6,972,972,6,6,6,6,6,6,6,6,6,6,6,6,6,6,6,6,6,6,6,6,6,6,6,6,972,972,6,6,6,6,6,6,6,6,6,6,6,6,6,6,
972,972,972,972,972,972,972,972,972,972,972,972,972,972,972,972,6,6,6,6,6,6,6,6,6,6,6,6,6,6,6,6,6,6,6,6,6,6,6,6,6,6,6,6,6,6,6,6,6,6,6,6,6,6,6,6,6,6,6,6
</data>
 </layer>
 <layer id="2" name="Objects on Ground" width="60" height="40" locked="1">
  <data encoding="csv">
0,0,0,0,0,0,0,0,0,0,0,0,0,0,0,0,0,791,792,0,0,0,0,0,0,0,0,0,0,0,0,0,0,0,0,0,0,0,0,0,0,0,0,0,0,0,0,0,0,0,0,0,0,0,0,0,0,0,0,0,
0,0,0,0,0,0,0,0,0,0,0,0,0,0,0,629,630,818,819,0,0,0,0,0,0,0,0,0,0,0,0,0,0,0,0,0,0,0,0,0,0,0,0,0,0,0,0,0,0,0,0,0,0,0,0,0,0,0,0,0,
0,0,0,0,0,0,0,0,0,0,0,0,0,629,630,656,657,0,0,0,0,0,0,0,0,0,0,0,0,0,0,0,0,0,0,0,0,0,0,0,0,0,0,0,0,0,0,0,0,0,0,0,0,0,0,0,0,0,0,0,
0,0,0,0,0,0,0,0,0,0,0,0,0,656,657,683,684,0,0,0,0,0,0,0,0,0,0,0,0,0,0,0,0,0,0,0,0,0,0,0,0,0,0,0,0,0,0,0,0,0,0,0,0,0,0,0,0,0,0,0,
0,0,0,0,0,0,0,0,0,0,0,0,0,683,684,710,711,629,630,0,0,0,0,791,792,0,0,0,0,0,0,0,0,0,0,0,0,0,0,0,0,0,0,0,0,0,0,0,0,0,0,0,0,0,0,0,0,0,0,0,
0,0,0,0,0,0,0,0,0,0,0,0,0,710,711,791,792,656,657,0,0,0,0,818,819,0,0,0,0,0,0,0,0,0,0,0,0,0,0,0,0,0,0,0,0,0,0,0,0,0,0,0,0,0,0,0,0,0,0,0,
0,0,0,0,0,0,0,0,0,0,805,806,807,0,0,818,819,683,684,0,0,0,0,0,0,0,0,0,0,0,0,0,0,0,0,0,0,0,0,0,0,0,0,0,0,0,0,0,0,0,0,0,0,0,0,0,0,0,0,0,
0,0,0,0,0,0,0,0,0,0,832,833,834,0,0,0,0,710,711,0,0,0,0,0,0,0,0,0,0,0,0,0,0,0,0,0,0,0,0,0,0,0,0,0,0,0,0,0,0,0,0,0,0,0,0,0,0,0,0,0,
0,0,0,0,0,0,0,0,0,0,0,0,0,0,0,0,0,0,0,0,0,0,0,0,0,0,0,0,0,0,0,0,0,0,0,0,0,0,0,0,0,0,0,0,0,0,0,0,0,0,0,0,0,0,0,0,0,0,0,0,
0,0,0,0,0,0,0,0,0,0,0,0,0,0,0,0,0,0,0,0,0,0,0,0,0,0,0,0,0,0,0,0,0,0,0,0,0,0,0,0,0,0,0,0,0,0,0,0,0,0,0,0,0,0,0,0,0,0,0,0,
0,0,0,0,0,0,0,0,0,0,0,0,0,0,0,0,0,0,0,0,0,0,0,0,0,0,0,0,0,0,0,0,0,0,0,0,0,0,0,0,0,0,0,0,0,0,0,0,0,0,0,0,0,0,0,0,0,0,0,0,
0,0,0,0,0,0,0,0,0,0,0,0,0,0,0,0,0,0,0,0,0,0,0,0,0,0,0,0,0,0,0,0,0,0,0,0,0,0,0,0,0,0,0,0,0,0,0,0,0,0,0,0,0,0,0,0,0,0,0,0,
791,792,0,0,0,0,0,0,0,0,0,0,0,0,0,0,0,0,0,0,0,0,0,0,0,0,0,0,0,0,0,0,0,0,0,0,0,0,0,0,0,0,0,0,0,0,0,0,0,0,0,0,0,0,0,0,0,0,0,0,
818,819,629,630,0,0,0,0,0,0,0,0,0,798,799,800,0,0,0,0,0,629,630,0,791,792,0,0,0,0,0,0,0,0,0,0,0,0,0,0,0,0,0,0,0,0,0,0,0,0,0,0,0,0,0,0,0,0,0,0,
0,0,656,657,0,0,0,0,0,791,792,0,0,825,826,827,0,0,0,0,0,656,657,0,818,819,0,0,0,0,0,0,0,0,0,0,0,0,0,0,0,0,0,0,0,0,0,0,0,0,0,0,0,0,0,0,0,0,0,0,
0,0,683,684,0,0,0,0,0,818,819,0,0,0,0,0,0,0,0,0,0,683,684,0,656,657,0,0,0,0,0,0,0,0,0,0,0,0,0,0,0,0,0,0,0,0,0,0,0,0,0,0,0,0,0,0,0,0,0,0,
0,0,710,711,0,0,0,0,0,0,0,0,0,0,0,791,792,0,0,0,0,710,805,806,807,684,0,0,0,0,0,0,0,0,0,0,0,0,0,0,0,0,0,0,0,0,0,0,0,0,0,0,0,0,0,0,0,0,0,0,
0,0,0,0,0,0,0,0,0,0,0,0,0,0,0,818,819,0,0,0,0,0,832,833,834,711,0,0,0,0,0,0,0,0,0,0,0,0,0,0,0,0,0,0,0,0,0,0,0,0,0,0,0,0,0,0,0,0,0,0,
0,0,0,0,0,0,0,0,0,0,0,0,0,0,0,0,0,0,0,0,0,0,0,0,0,0,0,0,0,0,0,0,0,0,0,0,0,0,0,0,0,0,0,0,0,0,0,0,0,0,0,0,0,0,0,0,0,0,0,0,
0,0,0,0,0,0,0,0,0,0,0,0,0,0,0,0,0,0,0,0,0,0,0,0,0,0,0,0,0,0,0,0,0,0,0,0,0,0,0,0,0,0,0,0,0,0,0,0,0,0,0,0,0,0,0,0,0,0,0,0,
0,0,0,0,0,0,0,0,0,0,0,0,0,0,0,0,0,0,0,0,0,0,0,0,0,0,0,0,0,0,439,440,441,442,443,444,445,446,0,0,0,0,0,0,0,0,0,0,0,0,0,0,0,0,0,0,0,0,0,0,
0,0,0,746,747,748,768,769,770,0,0,0,0,0,0,0,0,0,0,768,769,770,0,0,0,0,0,0,0,0,466,467,468,469,470,471,472,473,828,829,0,0,0,0,0,0,0,0,0,0,0,0,0,0,0,0,0,0,0,0,
0,0,0,0,0,0,795,796,797,0,0,0,0,0,0,0,0,0,0,795,796,797,759,760,761,0,0,0,0,0,493,494,495,496,497,498,499,500,0,0,0,0,0,0,0,0,0,0,0,0,0,0,0,0,0,0,0,0,0,0,
0,0,0,0,0,0,822,823,824,748,0,0,0,0,0,0,0,0,0,822,823,824,786,787,788,0,828,829,0,0,520,521,522,523,524,525,526,527,0,447,448,449,450,0,0,0,0,0,0,0,0,0,0,0,0,0,0,0,0,0,
0,0,0,0,0,0,0,0,0,0,0,828,829,0,0,0,0,0,0,746,747,748,813,814,815,0,0,0,0,0,547,548,549,550,551,552,553,554,0,474,475,476,477,0,0,0,0,0,0,0,0,0,0,0,0,0,0,0,0,0,
0,0,0,746,747,748,0,0,0,0,0,0,0,0,0,0,0,0,0,0,0,0,828,829,0,456,457,458,459,0,574,575,576,577,578,579,580,581,0,501,502,503,504,0,0,0,0,0,0,0,0,0,0,0,0,0,0,0,0,0,
0,0,0,0,0,0,0,0,0,0,0,0,0,0,0,0,0,0,0,0,0,0,0,0,0,483,484,485,486,0,601,602,603,604,605,606,607,608,447,448,449,450,531,0,0,0,0,0,0,0,0,0,0,0,0,0,0,0,0,0,
0,0,0,0,0,0,0,0,0,0,0,0,0,0,0,0,0,0,0,0,0,0,0,0,0,510,511,512,513,0,0,0,0,0,0,0,0,0,474,475,476,477,558,0,0,0,0,0,0,0,0,0,0,0,0,0,0,0,0,0,
0,0,0,0,0,0,0,0,0,0,0,0,0,0,0,0,0,0,0,828,829,0,0,0,0,537,538,539,540,0,0,0,828,829,828,829,0,0,501,502,456,457,458,459,0,0,0,0,0,0,0,0,0,0,0,0,0,0,0,0,
0,0,0,0,0,0,0,0,0,0,0,0,0,0,0,768,769,770,828,829,0,0,0,0,0,564,565,566,567,0,0,0,828,829,0,0,0,0,528,529,483,484,485,486,0,0,0,0,0,0,0,0,0,0,0,0,0,0,0,0,
0,0,0,0,0,0,0,0,0,0,0,0,0,0,0,795,796,797,0,0,0,0,0,0,0,591,592,768,769,770,0,0,0,0,0,0,0,0,555,556,510,511,512,513,0,0,0,0,0,0,0,0,0,0,0,0,0,0,0,0,
0,0,0,0,0,0,0,0,0,287,288,289,287,288,289,822,823,824,0,0,0,0,0,0,0,0,0,795,796,797,748,0,0,828,829,0,0,0,582,583,537,538,539,540,0,0,0,0,0,0,0,0,0,0,0,0,0,0,0,0,
0,759,760,761,0,0,287,288,289,314,315,316,314,315,316,317,0,0,0,0,0,0,0,0,828,829,0,822,823,800,801,802,803,803,0,0,0,0,0,0,828,829,566,567,0,0,0,0,0,0,0,0,0,0,0,0,0,0,0,0,
0,786,787,788,0,0,314,315,316,341,342,343,341,342,343,344,0,0,0,0,746,747,748,0,0,0,0,0,800,801,802,803,801,802,803,0,828,829,0,0,591,592,593,594,0,0,0,0,0,0,0,0,0,0,0,0,0,0,0,0,
0,813,814,815,746,747,748,342,343,368,369,370,368,369,370,371,0,0,0,0,0,0,0,0,0,0,0,0,0,0,800,801,802,803,0,0,0,0,0,0,0,0,0,0,0,0,0,0,0,0,0,0,0,0,0,0,0,0,0,0,
0,0,0,0,0,0,368,369,370,395,396,397,395,396,762,763,0,0,828,829,0,0,0,0,0,0,0,0,0,0,828,829,0,0,0,0,0,0,0,0,0,0,0,0,0,0,0,0,0,0,0,0,0,0,0,0,0,0,0,0,
0,0,0,0,0,0,395,396,397,398,0,0,0,0,789,790,0,0,0,0,0,0,0,0,0,0,0,0,0,0,0,0,0,0,0,0,0,0,0,0,0,0,828,829,0,0,0,0,0,0,0,0,0,0,0,0,0,0,0,0,
0,0,0,0,828,829,0,0,0,0,0,0,0,0,816,817,0,0,0,0,0,0,0,0,0,0,0,0,0,0,0,0,0,0,0,0,0,0,0,0,0,0,0,0,0,0,0,0,0,0,0,0,0,0,0,0,0,0,0,0,
0,746,747,748,0,0,0,0,0,0,746,747,748,0,0,0,0,0,0,0,0,0,0,0,0,0,0,0,0,0,0,0,0,0,0,0,0,0,0,0,0,0,0,0,0,0,0,0,0,0,0,0,0,0,0,0,0,0,0,0,
0,0,0,0,0,0,0,0,0,0,0,0,0,0,0,0,0,0,0,0,0,0,0,0,0,0,0,0,0,0,0,0,0,0,0,0,0,0,0,0,0,0,0,0,0,0,0,0,0,0,0,0,0,0,0,0,0,0,0,0
</data>
 </layer>
 <objectgroup id="3" name="Collisions" locked="1">
  <object id="3" x="581.333" y="236"/>
  <object id="4" x="581.333" y="213.333" width="1.33333"/>
  <object id="5" x="580" y="210.667" width="4" height="25.3333"/>
  <object id="6" x="805.333" y="524" width="1.33333" height="34.6667"/>
  <object id="7" x="705.333" y="484" width="2.66667" height="21.3333"/>
  <object id="8" x="708" y="488" width="6.66667" height="18.6667"/>
  <object id="9" x="93.3333" y="492" width="13.3333" height="40"/>
  <object id="10" x="448" y="144" width="8" height="30.6667"/>
  <object id="11" x="510.667" y="106.667" width="10.6667" height="37.3333"/>
  <object id="12" x="333.333" y="224" width="54.6667" height="21.3333"/>
  <object id="13" x="506.667" y="192" width="18.6667" height="12"/>
  <object id="14" x="758.667" y="164" width="29.3333" height="8"/>
  <object id="15" x="573.333" y="30.6667" width="18.6667" height="14.6667"/>
  <object id="16" x="313.333" y="486.667" width="20" height="8"/>
  <object id="17" x="320" y="480" width="17.3333" height="12"/>
  <object id="18" x="26.6667" y="417.333" width="21.3333" height="13.3333"/>
  <object id="19" x="504" y="540" width="22.6667" height="17.3333"/>
  <object id="20" x="714.667" y="544" width="56" height="20"/>
  <object id="21" x="793.333" y="444" width="22.6667" height="22.6667"/>
  <object id="30" x="432" y="430.667" width="21.3333" height="14.6667"/>
  <object id="31" x="461.333" y="449.333" width="17.3333" height="10.6667"/>
  <object id="32" x="453.333" y="445.333" width="20" height="9.33333"/>
  <object id="33" x="740" y="348" width="21.3333" height="45.3333"/>
  <object id="34" x="648" y="93.3333" width="17.3333" height="42.6667"/>
  <object id="35" x="192" y="474.667" width="22.6667" height="45.3333"/>
  <object id="36" x="480" y="290.667" width="30.6667" height="36"/>
  <object id="38" x="444" y="1092" width="5.33333" height="36"/>
  <object id="39" x="348" y="1093.33" width="13.3333" height="42.6667"/>
  <object id="40" x="252" y="1126.67" width="13.3333" height="41.3333"/>
  <object id="41" x="474.667" y="1136" width="22.6667" height="60"/>
  <object id="42" x="464" y="1138.67" width="5.33333" height="60"/>
  <object id="43" x="712" y="724" width="21.3333" height="14.6667"/>
  <object id="44" x="769.333" y="726.667" width="18.6667" height="12"/>
  <object id="45" x="765.333" y="773.333" width="21.3333" height="9.33333"/>
  <object id="46" x="712" y="769.333" width="21.3333" height="13.3333"/>
  <object id="47" x="25.3333" y="986.667" width="29.3333" height="41.3333"/>
  <object id="48" x="162.667" y="893.333" width="20" height="32"/>
  <object id="49" x="224" y="864" width="50.6667" height="8"/>
  <object id="50" x="452" y="664" width="24" height="44"/>
  <object id="51" x="644" y="956" width="14.6667" height="33.3333"/>
  <object id="52" x="869.333" y="913.333" width="17.3333" height="45.3333"/>
  <object id="53" x="1017.33" y="732" width="38.6667" height="40"/>
  <object id="54" x="1149.33" y="736" width="32" height="40"/>
  <object id="55" x="1346.67" y="1000" width="17.3333" height="84"/>
  <object id="56" x="1248" y="909.333" width="40" height="42.6667"/>
  <object id="57" x="1276" y="798.667" width="40" height="37.3333"/>
  <object id="58" x="1149.33" y="949.333" width="28" height="49.3333"/>
  <object id="59" x="1177.33" y="798.667" width="30.6667" height="29.3333"/>
  <object id="60" x="1085.33" y="804" width="60" height="12"/>
  <object id="61" x="1022.67" y="801.333" width="18.6667" height="20"/>
  <object id="62" x="228" y="853.333" width="36" height="21.3333"/>
  <object id="63" x="213.333" y="861.333" width="30.6667" height="25.3333"/>
  <object id="64" x="41.3333" y="1040" width="20" height="17.3333"/>
  <object id="65" x="94.6667" y="1052" width="25.3333" height="16"/>
  <object id="66" x="94.6667" y="1092" width="24" height="17.3333"/>
  <object id="67" x="33.3333" y="1090.67" width="28" height="13.3333"/>
 </objectgroup>
 <objectgroup id="5" name="Regions">
  <object id="75" x="0" y="0" width="257.333" height="256">
   <properties>
    <property name="region_type" value="nav_deep_water"/>
   </properties>
  </object>
  <object id="76" x="2.66667" y="260" width="58.6667" height="92">
   <properties>
    <property name="region_type" value="nav_deep_water"/>
   </properties>
  </object>
  <object id="77" x="57.3333" y="257.333" width="70.6667" height="25.3333">
   <properties>
    <property name="region_type" value="nav_deep_water"/>
   </properties>
  </object>
  <object id="81" x="56" y="282" width="36" height="33.3333">
   <properties>
    <property name="region_type" value="nav_deep_water"/>
   </properties>
  </object>
  <object id="83" x="258.667" y="0" width="124" height="93.3333">
   <properties>
    <property name="region_type" value="nav_deep_water"/>
   </properties>
  </object>
  <object id="84" x="260" y="94.6667" width="28" height="96">
   <properties>
    <property name="region_type" value="nav_deep_water"/>
   </properties>
  </object>
  <object id="85" x="385.333" y="1.33333" width="30.6667" height="30.6667">
   <properties>
    <property name="region_type" value="nav_deep_water"/>
   </properties>
  </object>
  <object id="87" x="289.333" y="96" width="28" height="28">
   <properties>
    <property name="region_type" value="nav_deep_water"/>
   </properties>
  </object>
  <object id="88" name="special_forest_entrance" x="1061.33" y="721.333" width="82.6667" height="60">
   <properties>
    <property name="destination_map" value="special_forest"/>
    <property name="destination_spawn" value="entrance"/>
    <property name="region_type" value="map_transition"/>
   </properties>
  </object>
 </objectgroup>
 <objectgroup id="4" name="Spawns" locked="1">
  <object id="37" name="player_start" x="397.333" y="584">
   <point/>
  </object>
 </objectgroup>
</map>
